; generated by Slic3r 1.2.9 on 2017-09-13 at 15:24:09

; external perimeters extrusion width = 0.50mm
; perimeters extrusion width = 0.72mm
; infill extrusion width = 0.72mm
; solid infill extrusion width = 0.72mm
; top infill extrusion width = 0.72mm

M107
M104 S200 ; set temperature
G28 ; home all axes
G1 Z5 F5000 ; lift nozzle

M109 S200 ; wait for temperature to be reached
G21 ; set units to millimeters
G90 ; use absolute coordinates
M82 ; use absolute distances for extrusion
G92 E0
G1 Z0.500 F7800.000
G1 E-2.00000 F2400.00000
G92 E0
G1 X63.618 Y76.465 F7800.000
G1 E2.00000 F2400.00000
G1 X64.047 Y76.165 E2.03303 F1800.000
G1 X65.087 Y75.565 E2.10890
G1 X65.561 Y75.344 E2.14193
G1 X66.690 Y74.933 E2.21779
G1 X67.195 Y74.797 E2.25082
G1 X68.378 Y74.589 E2.32668
G1 X68.899 Y74.543 E2.35971
G1 X69.500 Y74.517 E2.39767
G1 X95.500 Y74.517 E4.03945
G1 X96.101 Y74.543 E4.07742
G1 X97.183 Y74.661 E4.14616 F1800.000
G1 X132.356 Y80.676 E6.39946
G1 X132.979 Y80.813 E6.43967
G1 X133.652 Y80.993 E6.48370
G1 X134.781 Y81.404 E6.55957
G1 X135.413 Y81.699 E6.60359
G1 X136.453 Y82.299 E6.67946
G1 X137.025 Y82.699 E6.72350
G1 X137.945 Y83.472 E6.79936
G1 X138.438 Y83.965 E6.84339
G1 X139.210 Y84.885 E6.91925
G1 X139.610 Y85.456 E6.96328
G1 X140.211 Y86.497 E7.03915
G1 X140.476 Y87.065 E7.07877
G1 X140.917 Y88.258 E7.15903
G1 X141.097 Y88.931 E7.20306
G1 X141.306 Y90.114 E7.27893
G1 X141.366 Y90.809 E7.32296
G1 X141.366 Y92.010 E7.39882
G1 X141.306 Y92.705 E7.44287
G1 X141.097 Y93.888 E7.51872
G1 X140.935 Y94.494 E7.55834
G1 X140.506 Y95.691 E7.63860
G1 X140.211 Y96.323 E7.68263
G1 X139.610 Y97.363 E7.75850
G1 X139.210 Y97.934 E7.80253
G1 X138.438 Y98.855 E7.87839
G1 X137.945 Y99.348 E7.92242
G1 X137.025 Y100.120 E7.99829
G1 X136.284 Y100.635 E8.05526
G1 X100.784 Y123.950 E10.73715
G1 X99.913 Y124.435 E10.80011
G1 X99.439 Y124.656 E10.83313
G1 X98.310 Y125.067 E10.90900
G1 X97.805 Y125.203 E10.94204
G1 X96.622 Y125.411 E11.01789
G1 X96.101 Y125.457 E11.05091
G1 X94.899 Y125.457 E11.12678
G1 X94.007 Y125.369 E11.18337
G1 X76.642 Y122.896 E12.29100
G1 X76.130 Y122.803 E12.32384
G1 X74.322 Y122.405 E12.44073
G1 X73.381 Y122.126 E12.50270
G1 X71.648 Y121.475 E12.61959
G1 X70.756 Y121.065 E12.68157
G1 X69.134 Y120.174 E12.79846
G1 X68.309 Y119.642 E12.86044
G1 X66.829 Y118.530 E12.97733
G1 X66.089 Y117.886 E13.03930
G1 X64.782 Y116.575 E13.15619
G1 X64.140 Y115.832 E13.21817
G1 X63.033 Y114.349 E13.33506
G1 X62.503 Y113.523 E13.39704
G1 X61.617 Y111.897 E13.51393
G1 X61.210 Y111.004 E13.57590
G1 X60.565 Y109.269 E13.69280
G1 X60.289 Y108.327 E13.75477
G1 X59.820 Y106.111 E13.89782
G1 X58.696 Y98.851 E14.36170
G1 X58.633 Y98.310 E14.39611
G1 X58.607 Y97.710 E14.43405
G1 X58.607 Y94.910 E14.61086
G1 X58.646 Y94.171 E14.65754
G1 X59.684 Y83.237 E15.35108
G1 X59.888 Y82.105 E15.42375
G1 X60.023 Y81.600 E15.45677
G1 X60.434 Y80.471 E15.53264
G1 X60.655 Y79.997 E15.56566
G1 X61.256 Y78.956 E15.64153
G1 X61.556 Y78.528 E15.67456
G1 X62.327 Y77.608 E15.75037
G1 X62.698 Y77.238 E15.78344
G1 X63.561 Y76.514 E15.85456
G1 E13.85456 F2400.00000
G92 E0
G1 X99.251 Y97.710 F7800.000
G1 E2.00000 F2400.00000
G1 X99.014 Y97.821 E2.01653 F1800.000
G1 X98.761 Y97.889 E2.03306
G1 X98.500 Y97.911 E2.04959
G1 X98.239 Y97.889 E2.06613
G1 X97.986 Y97.821 E2.08266
G1 X97.749 Y97.710 E2.09919
G1 X97.535 Y97.560 E2.11572
G1 X97.349 Y97.375 E2.13225
G1 X97.199 Y97.161 E2.14878
G1 X97.098 Y96.943 E2.16396
G1 X97.021 Y96.674 E2.18158
G1 X96.998 Y96.410 E2.19836
G1 X97.021 Y96.149 E2.21489
G1 X97.089 Y95.896 E2.23143
G1 X97.199 Y95.659 E2.24796
G1 X97.349 Y95.444 E2.26449
G1 X97.535 Y95.259 E2.28102
G1 X97.749 Y95.109 E2.29755
G1 X97.986 Y94.998 E2.31408
G1 X98.239 Y94.930 E2.33062
G1 X98.479 Y94.910 E2.34580 F1800.000
G1 X98.757 Y94.929 E2.36341
G1 X99.014 Y94.998 E2.38020
G1 X99.251 Y95.109 E2.39673
G1 X99.465 Y95.259 E2.41326
G1 X99.651 Y95.444 E2.42979
G1 X99.801 Y95.659 E2.44632
G1 X99.911 Y95.896 E2.46285
G1 X99.979 Y96.149 E2.47938
G1 X100.002 Y96.410 E2.49592
G1 X99.979 Y96.670 E2.51245
G1 X99.911 Y96.923 E2.52898
G1 X99.810 Y97.141 E2.54416
G1 X99.653 Y97.372 E2.56178
G1 X99.465 Y97.560 E2.57856
G1 X99.312 Y97.667 E2.59035
G1 X99.243 Y97.972 F7800.000
G1 X99.274 Y99.636 F7800.000
G1 X99.215 Y100.310 E2.63306 F1800.000
G1 X99.215 Y110.380 E3.26898
G1 X98.759 Y110.539 E3.29941
G1 X98.139 Y110.878 E3.34403
G1 X97.583 Y111.313 E3.38864
G1 X97.244 Y111.684 E3.42035
G1 X96.969 Y111.555 E3.43954
G1 X96.228 Y111.357 E3.48795
G1 X95.447 Y111.301 E3.53739
G1 X94.754 Y111.362 E3.58130
G1 X94.031 Y111.555 E3.62857
G1 X93.679 Y111.720 E3.65312
G1 X93.260 Y111.301 E3.69051
G1 X92.647 Y110.872 E3.73778
G1 X91.969 Y110.555 E3.78504
G1 X91.246 Y110.362 E3.83231
G1 X90.600 Y110.305 E3.87325
G1 X89.190 Y110.305 E3.96226
G1 X88.664 Y110.342 E3.99554
G1 X88.070 Y110.471 E4.03396
G1 X87.499 Y110.682 E4.07238
G1 X86.965 Y110.972 E4.11077
G1 X85.251 Y112.243 E4.24550
G1 X83.910 Y112.968 E4.34178
G1 X82.479 Y113.496 E4.43807
G1 X80.988 Y113.815 E4.53436
G1 X79.466 Y113.918 E4.63065
G1 X77.946 Y113.805 E4.72694
G1 X76.457 Y113.477 E4.82323
G1 X75.029 Y112.940 E4.91952
G1 X73.692 Y112.207 E5.01581
G1 X72.473 Y111.291 E5.11210
G1 X71.397 Y110.211 E5.20838
G1 X70.485 Y108.989 E5.30467
G1 X69.755 Y107.650 E5.40096
G1 X69.223 Y106.221 E5.49725
G1 X68.900 Y104.731 E5.59354
G1 X68.785 Y103.126 E5.69511
G1 X68.779 Y99.598 E5.91789
G1 X69.127 Y99.505 E5.94059
G1 X69.647 Y99.262 E5.97685
G1 X70.117 Y98.933 E6.01311
G1 X70.523 Y98.527 E6.04937
G1 X70.853 Y98.057 E6.08563
G1 X71.095 Y97.536 E6.12188
G1 X71.244 Y96.982 E6.15814
G1 X71.294 Y96.410 E6.19440
G1 X71.244 Y95.838 E6.23066
G1 X71.095 Y95.283 E6.26692
G1 X70.853 Y94.763 E6.30318
G1 X70.523 Y94.292 E6.33944
G1 X70.117 Y93.886 E6.37570
G1 X69.647 Y93.557 E6.41195
G1 X69.127 Y93.314 E6.44821
G1 X68.785 Y93.223 E6.47052
G1 X68.785 Y88.641 E6.75982
G1 X69.500 Y88.704 E6.80512
G1 X70.246 Y88.638 E6.85238
G1 X70.969 Y88.445 E6.89965
G1 X71.321 Y88.280 E6.92420
G1 X71.740 Y88.699 E6.96159
G1 X72.353 Y89.128 E7.00886
G1 X73.031 Y89.445 E7.05612
G1 X73.754 Y89.638 E7.10339
G1 X74.400 Y89.695 E7.14433
G1 X90.590 Y89.695 E8.16663
G1 X91.171 Y89.649 E8.20347
G1 X91.826 Y89.492 E8.24601
G1 X92.449 Y89.234 E8.28854
G1 X93.023 Y88.882 E8.33107
G1 X93.535 Y88.445 E8.37360
G1 X93.677 Y88.279 E8.38735
G1 X94.031 Y88.445 E8.41206
G1 X94.754 Y88.638 E8.45933
G1 X95.500 Y88.704 E8.50659
G1 X96.246 Y88.638 E8.55386
G1 X96.969 Y88.445 E8.60112
G1 X97.321 Y88.280 E8.62568
G1 X97.740 Y88.699 E8.66307
G1 X98.353 Y89.128 E8.71033
G1 X99.031 Y89.445 E8.75760
G1 X99.754 Y89.638 E8.80486
G1 X100.400 Y89.695 E8.84580
G1 X126.531 Y89.695 E10.49583
G1 X126.271 Y90.664 E10.55917
G1 X126.206 Y91.410 E10.60644
G1 X126.271 Y92.155 E10.65370
G1 X126.531 Y93.124 E10.71705
G1 X106.400 Y93.124 E11.98820
G1 X105.233 Y93.226 E12.06216
G1 X104.005 Y93.555 E12.14245
G1 X102.853 Y94.093 E12.22273
G1 X101.811 Y94.822 E12.30302
G1 X101.518 Y95.116 E12.32926
G1 X101.353 Y94.763 E12.35388
G1 X101.023 Y94.292 E12.39014
G1 X100.617 Y93.886 E12.42640
G1 X100.147 Y93.557 E12.46266
G1 X99.627 Y93.314 E12.49891
G1 X99.054 Y93.161 E12.53632
G1 X98.465 Y93.119 E12.57367
G1 X97.928 Y93.166 E12.60768
G1 X97.373 Y93.314 E12.64393
G1 X96.853 Y93.557 E12.68019
G1 X96.383 Y93.886 E12.71645
G1 X95.977 Y94.292 E12.75271
G1 X95.647 Y94.763 E12.78897
G1 X95.405 Y95.283 E12.82523
G1 X95.256 Y95.838 E12.86149
G1 X95.206 Y96.410 E12.89774
G1 X95.257 Y97.000 E12.93515
G1 X95.420 Y97.569 E12.97250
G1 X95.647 Y98.057 E13.00651
G1 X95.977 Y98.527 E13.04277
G1 X96.383 Y98.933 E13.07902
G1 X96.853 Y99.262 E13.11528
G1 X97.373 Y99.505 E13.15154
G1 X97.928 Y99.654 E13.18780
G1 X98.500 Y99.704 E13.22406
G1 X99.199 Y99.643 E13.26835
G1 X100.583 Y97.868 F7800.000
G1 X100.199 Y99.299 E13.36190 F1800.000
G1 X100.107 Y100.349 E13.42847
G1 X100.107 Y110.533 E14.07156
G1 X100.094 Y110.689 E14.08146
G1 X100.030 Y110.876 E14.09394
G1 X99.901 Y111.039 E14.10706
G1 X99.831 Y111.094 E14.11266
G1 X99.744 Y111.141 E14.11893
G1 X99.123 Y111.358 E14.16050
G1 X98.632 Y111.626 E14.19580
G1 X98.192 Y111.971 E14.23111
G1 X97.814 Y112.383 E14.26642
G1 X97.503 Y112.861 E14.30241
G1 X97.199 Y112.648 E14.32587
G1 X96.662 Y112.397 E14.36327
G1 X96.079 Y112.241 E14.40137
G1 X95.454 Y112.196 E14.44095
G1 X94.910 Y112.244 E14.47545
G1 X94.338 Y112.397 E14.51285
G1 X93.801 Y112.648 E14.55025
G1 X93.446 Y112.896 E14.57761
G1 X93.103 Y112.406 E14.61538
G1 X92.684 Y111.987 E14.65278
G1 X92.199 Y111.648 E14.69018
G1 X91.662 Y111.397 E14.72758
G1 X91.090 Y111.244 E14.76498
G1 X90.561 Y111.198 E14.79853
G1 X89.222 Y111.198 E14.88308
G1 X88.791 Y111.228 E14.91036
G1 X88.320 Y111.330 E14.94076
G1 X87.869 Y111.497 E14.97117
G1 X87.446 Y111.727 E15.00156
G1 X85.732 Y112.998 E15.13631
G1 X84.278 Y113.784 E15.24064
G1 X82.728 Y114.355 E15.34498
G1 X81.112 Y114.701 E15.44932
G1 X79.464 Y114.813 E15.55365
G1 X77.816 Y114.690 E15.65799
G1 X76.202 Y114.335 E15.76233
G1 X74.656 Y113.754 E15.86666
G1 X73.207 Y112.959 E15.97100
G1 X71.886 Y111.966 E16.07533
G1 X70.720 Y110.796 E16.17967
G1 X69.731 Y109.472 E16.28401
G1 X68.941 Y108.021 E16.38834
G1 X68.364 Y106.472 E16.49268
G1 X68.014 Y104.858 E16.59702
G1 X67.893 Y103.159 E16.70457
G1 X67.885 Y98.818 E16.97869
G1 X68.416 Y98.771 E17.01235
G1 X68.820 Y98.663 E17.03875
G1 X69.199 Y98.486 E17.06514
G1 X69.541 Y98.247 E17.09153
G1 X69.837 Y97.951 E17.11793
G1 X70.077 Y97.609 E17.14433
G1 X70.253 Y97.230 E17.17072
G1 X70.362 Y96.826 E17.19711
G1 X70.398 Y96.410 E17.22351
G1 X70.362 Y95.993 E17.24991
G1 X70.253 Y95.589 E17.27630
G1 X70.077 Y95.211 E17.30269
G1 X69.837 Y94.868 E17.32909
G1 X69.541 Y94.573 E17.35549
G1 X69.199 Y94.333 E17.38188
G1 X68.820 Y94.156 E17.40827
G1 X68.406 Y94.045 E17.43537
G1 X67.893 Y94.008 E17.46785
G1 X67.893 Y87.395 E17.88545
G1 X68.338 Y87.603 E17.91646
G1 X68.910 Y87.756 E17.95386
G1 X69.500 Y87.808 E17.99126
G1 X70.090 Y87.756 E18.02866
G1 X70.662 Y87.603 E18.06607
G1 X71.199 Y87.352 E18.10347
G1 X71.554 Y87.104 E18.13083
G1 X71.897 Y87.594 E18.16859
G1 X72.316 Y88.013 E18.20600
G1 X72.801 Y88.352 E18.24340
G1 X73.338 Y88.603 E18.28080
G1 X73.910 Y88.756 E18.31820
G1 X74.439 Y88.802 E18.35175
G1 X90.555 Y88.802 E19.36937
G1 X91.031 Y88.765 E19.39957
G1 X91.550 Y88.640 E19.43323
G1 X92.042 Y88.436 E19.46689
G1 X92.497 Y88.158 E19.50055
G1 X92.902 Y87.812 E19.53421
G1 X93.248 Y87.406 E19.56787
G1 X93.437 Y87.098 E19.59072
G1 X93.801 Y87.352 E19.61875
G1 X94.338 Y87.603 E19.65615
G1 X94.910 Y87.756 E19.69356
G1 X95.500 Y87.808 E19.73096
G1 X96.090 Y87.756 E19.76836
G1 X96.662 Y87.603 E19.80576
G1 X97.199 Y87.352 E19.84316
G1 X97.554 Y87.104 E19.87052
G1 X97.897 Y87.594 E19.90829
G1 X98.316 Y88.013 E19.94569
G1 X98.801 Y88.352 E19.98309
G1 X99.338 Y88.603 E20.02050
G1 X99.910 Y88.756 E20.05790
G1 X100.439 Y88.802 E20.09145
G1 X128.193 Y88.802 E21.84399
G1 X127.557 Y89.711 E21.91401
G1 X127.307 Y90.247 E21.95141
G1 X127.154 Y90.820 E21.98881
G1 X127.102 Y91.410 E22.02621
G1 X127.154 Y92.000 E22.06361
G1 X127.307 Y92.572 E22.10102
G1 X127.557 Y93.109 E22.13842
G1 X128.193 Y94.017 E22.20844
G1 X106.439 Y94.017 E23.58211
G1 X105.389 Y94.109 E23.64867
G1 X104.312 Y94.397 E23.71910
G1 X103.301 Y94.869 E23.78952
G1 X102.387 Y95.508 E23.85994
G1 X101.599 Y96.297 E23.93037
G1 X101.265 Y96.774 E23.96716
G1 X100.878 Y96.634 E23.99311
G1 X100.898 Y96.410 E24.00732
G1 X100.862 Y95.993 E24.03372
G1 X100.753 Y95.589 E24.06011
G1 X100.577 Y95.211 E24.08651
G1 X100.337 Y94.868 E24.11290
G1 X100.041 Y94.573 E24.13930
G1 X99.699 Y94.333 E24.16569
G1 X99.320 Y94.156 E24.19209
G1 X98.906 Y94.045 E24.21918
G1 X98.472 Y94.014 E24.24666
G1 X98.084 Y94.048 E24.27126
G1 X97.680 Y94.156 E24.29765
G1 X97.301 Y94.333 E24.32405
G1 X96.959 Y94.573 E24.35044
G1 X96.663 Y94.868 E24.37684
G1 X96.423 Y95.211 E24.40323
G1 X96.247 Y95.589 E24.42963
G1 X96.138 Y95.993 E24.45602
G1 X96.102 Y96.410 E24.48242
G1 X96.139 Y96.837 E24.50951
G1 X96.259 Y97.256 E24.53700
G1 X96.423 Y97.609 E24.56159
G1 X96.663 Y97.951 E24.58799
G1 X96.959 Y98.247 E24.61438
G1 X97.301 Y98.486 E24.64078
G1 X97.680 Y98.663 E24.66717
G1 X98.084 Y98.771 E24.69357
G1 X98.500 Y98.808 E24.71996
G1 X98.916 Y98.771 E24.74636
G1 X99.320 Y98.663 E24.77275
G1 X99.699 Y98.486 E24.79915
G1 X100.521 Y97.911 E24.86252
G1 X101.450 Y95.438 F7800.000
G1 X101.990 Y91.977 F7800.000
G1 X106.194 Y91.415 F7800.000
G1 X124.747 Y91.650 F7800.000
G1 X125.271 Y92.130 F7800.000
G1 X127.542 Y91.931 F7800.000
G1 X128.036 Y91.844 F7800.000
G1 X127.998 Y91.410 E24.89006 F1800.000
G1 X128.036 Y90.975 E24.91760
G1 X128.149 Y90.554 E24.94514
G1 X128.333 Y90.159 E24.97268
G1 X128.583 Y89.801 E25.00022
G1 X128.892 Y89.493 E25.02775
G1 X129.249 Y89.243 E25.05529
G1 X129.644 Y89.059 E25.08283
G1 X130.066 Y88.946 E25.11037
G1 X130.461 Y88.911 E25.13545 F1800.000
G1 X130.931 Y88.945 E25.16516
G1 X131.356 Y89.059 E25.19295
G1 X131.751 Y89.243 E25.22049
G1 X132.108 Y89.493 E25.24803
G1 X132.417 Y89.801 E25.27557
G1 X132.667 Y90.159 E25.30311
G1 X132.835 Y90.519 E25.32819
G1 X132.964 Y90.971 E25.35790
G1 X133.002 Y91.410 E25.38569
G1 X132.964 Y91.844 E25.41323
G1 X132.851 Y92.265 E25.44077
G1 X132.667 Y92.661 E25.46831
G1 X132.417 Y93.018 E25.49585
G1 X132.108 Y93.326 E25.52339
G1 X131.751 Y93.576 E25.55093
G1 X131.356 Y93.761 E25.57846
G1 X130.934 Y93.873 E25.60600
G1 X130.500 Y93.911 E25.63354
G1 X130.066 Y93.873 E25.66108
G1 X129.644 Y93.761 E25.68862
G1 X129.249 Y93.576 E25.71616
G1 X128.892 Y93.326 E25.74370
G1 X128.583 Y93.018 E25.77123
G1 X128.333 Y92.661 E25.79877
G1 X128.149 Y92.265 E25.82631
G1 X128.056 Y91.916 E25.84911
G1 X127.631 Y91.683 F7800.000
G1 X67.000 Y94.910 F7800.000
G1 X67.000 Y85.838 E26.42197 F1800.000
G1 X67.375 Y85.719 E26.44677
G1 X67.583 Y86.018 E26.46976
G1 X67.892 Y86.326 E26.49730
G1 X68.249 Y86.576 E26.52484
G1 X68.644 Y86.761 E26.55238
G1 X69.066 Y86.873 E26.57992
G1 X69.500 Y86.911 E26.60746
G1 X69.934 Y86.873 E26.63499
G1 X70.356 Y86.761 E26.66253
G1 X70.751 Y86.576 E26.69007
G1 X71.108 Y86.326 E26.71761
G1 X71.417 Y86.018 E26.74515
G1 X71.898 Y85.330 E26.79818
G1 X72.149 Y86.265 E26.85934
G1 X72.333 Y86.661 E26.88688
G1 X72.583 Y87.018 E26.91442
G1 X72.892 Y87.326 E26.94196
G1 X73.249 Y87.576 E26.96949
G1 X73.644 Y87.761 E26.99703
G1 X74.066 Y87.873 E27.02457
G1 X74.478 Y87.910 E27.05073
G1 X90.520 Y87.910 E28.06367
G1 X90.891 Y87.880 E28.08722
G1 X91.273 Y87.789 E28.11200
G1 X91.636 Y87.638 E28.13679
G1 X91.970 Y87.433 E28.16158
G1 X92.269 Y87.178 E28.18636
G1 X92.524 Y86.880 E28.21115
G1 X92.729 Y86.545 E28.23594
G1 X92.879 Y86.183 E28.26072
G1 X93.088 Y85.311 E28.31734
G1 X93.583 Y86.018 E28.37184
G1 X93.892 Y86.326 E28.39937
G1 X94.249 Y86.576 E28.42691
G1 X94.644 Y86.761 E28.45445
G1 X95.066 Y86.873 E28.48199
G1 X95.500 Y86.911 E28.50953
G1 X95.934 Y86.873 E28.53707
G1 X96.356 Y86.761 E28.56461
G1 X96.751 Y86.576 E28.59214
G1 X97.108 Y86.326 E28.61968
G1 X97.417 Y86.018 E28.64722
G1 X97.898 Y85.330 E28.70026
G1 X98.149 Y86.265 E28.76141
G1 X98.333 Y86.661 E28.78895
G1 X98.583 Y87.018 E28.81649
G1 X98.892 Y87.326 E28.84403
G1 X99.249 Y87.576 E28.87157
G1 X99.644 Y87.761 E28.89911
G1 X100.066 Y87.873 E28.92664
G1 X100.478 Y87.910 E28.95280
G1 X130.478 Y87.910 E30.84716
G1 X131.107 Y87.965 E30.88705
G1 X131.696 Y88.122 E30.92556
G1 X132.249 Y88.380 E30.96406
G1 X132.695 Y88.692 E30.99841
G1 X133.182 Y89.164 E31.04126
G1 X133.529 Y89.661 E31.07951
G1 X133.787 Y90.213 E31.11801
G1 X133.945 Y90.802 E31.15651
G1 X133.998 Y91.410 E31.19502
G1 X133.951 Y91.952 E31.22937
G1 X133.785 Y92.610 E31.27221
G1 X133.529 Y93.159 E31.31047
G1 X133.180 Y93.658 E31.34897
G1 X132.749 Y94.089 E31.38747
G1 X132.249 Y94.439 E31.42598
G1 X131.696 Y94.697 E31.46448
G1 X131.107 Y94.855 E31.50298
G1 X130.478 Y94.910 E31.54287
G1 X106.478 Y94.910 E33.05836
G1 X105.545 Y94.991 E33.11754
G1 X104.618 Y95.239 E33.17810
G1 X103.749 Y95.645 E33.23866
G1 X102.963 Y96.195 E33.29922
G1 X102.285 Y96.873 E33.35978
G1 X102.210 Y96.980 E33.36804
G1 X101.735 Y97.659 E33.42034
G1 X101.330 Y98.528 E33.48090
G1 X101.082 Y99.454 E33.54146
G1 X101.000 Y100.388 E33.60063
