; generated by Slic3r 1.2.9 on 2017-09-13 at 15:20:16

; external perimeters extrusion width = 0.50mm
; perimeters extrusion width = 0.72mm
; infill extrusion width = 0.72mm
; solid infill extrusion width = 0.72mm
; top infill extrusion width = 0.72mm

M107
M104 S200 ; set temperature
G28 ; home all axes
G1 Z5 F5000 ; lift nozzle

M109 S200 ; wait for temperature to be reached
G21 ; set units to millimeters
G90 ; use absolute coordinates
M82 ; use absolute distances for extrusion
G92 E0
G1 Z0.500 F7800.000
G1 E-2.00000 F2400.00000
G92 E0
G1 X87.242 Y87.242 F7800.000
G1 E2.00000 F2400.00000
G1 X87.732 Y86.764 E2.04321 F1800.000
G1 X88.368 Y86.246 E2.09499
G1 X90.635 Y84.613 E2.27147
G1 X91.536 Y84.063 E2.33805
G1 X92.044 Y83.805 E2.37405
G1 X92.423 Y83.621 E2.40066
G1 X93.187 Y83.325 E2.45242
G1 X95.849 Y82.472 E2.62890
G1 X96.875 Y82.228 E2.69549
G1 X97.438 Y82.139 E2.73149
G1 X97.855 Y82.081 E2.75808
G1 X98.674 Y82.036 E2.80986
G1 X101.468 Y82.047 E2.98634
G1 X102.519 Y82.132 E3.05292 F1800.000
G1 X103.082 Y82.221 E3.08892
G1 X103.497 Y82.296 E3.11552
G1 X104.290 Y82.505 E3.16730
G1 X106.944 Y83.379 E3.34378
G1 X107.918 Y83.785 E3.41036
G1 X108.797 Y84.243 E3.47295
G1 X109.486 Y84.687 E3.52473
G1 X111.741 Y86.339 E3.70121
G1 X112.541 Y87.025 E3.76779
G1 X113.235 Y87.732 E3.83038
G1 X113.754 Y88.368 E3.88216
G1 X115.387 Y90.635 E4.05864
G1 X115.937 Y91.536 E4.12522
G1 X116.379 Y92.423 E4.18781
G1 X116.675 Y93.187 E4.23959
G1 X117.528 Y95.849 E4.41607
G1 X117.772 Y96.875 E4.48266
G1 X117.861 Y97.438 E4.51866
G1 X117.919 Y97.855 E4.54523
G1 X117.964 Y98.674 E4.59703
G1 X117.953 Y101.468 E4.77351
G1 X117.868 Y102.519 E4.84009
G1 X117.740 Y103.315 E4.89095
G1 X117.495 Y104.290 E4.95445
G1 X116.621 Y106.944 E5.13093
G1 X116.215 Y107.918 E5.19751
G1 X115.757 Y108.797 E5.26009
G1 X115.313 Y109.486 E5.31188
G1 X113.661 Y111.740 E5.48836
G1 X112.975 Y112.541 E5.55494
G1 X112.268 Y113.235 E5.61753
G1 X111.632 Y113.754 E5.66931
G1 X109.365 Y115.387 E5.84579
G1 X108.464 Y115.937 E5.91238
G1 X107.956 Y116.195 E5.94838
G1 X107.577 Y116.379 E5.97497
G1 X106.813 Y116.675 E6.02675
G1 X104.151 Y117.528 E6.20323
G1 X103.125 Y117.772 E6.26981
G1 X102.145 Y117.919 E6.33238
G1 X101.326 Y117.964 E6.38418
G1 X98.532 Y117.953 E6.56066
G1 X97.481 Y117.868 E6.62724
G1 X96.917 Y117.779 E6.66324
G1 X96.503 Y117.704 E6.68982
G1 X95.710 Y117.495 E6.74162
G1 X93.056 Y116.621 E6.91810
G1 X92.082 Y116.215 E6.98468
G1 X91.574 Y115.956 E7.02068
G1 X91.203 Y115.757 E7.04728
G1 X90.514 Y115.313 E7.09905
G1 X88.260 Y113.661 E7.27553
G1 X87.459 Y112.975 E7.34211
G1 X86.765 Y112.268 E7.40470
G1 X86.246 Y111.632 E7.45648
G1 X84.613 Y109.365 E7.63297
G1 X84.063 Y108.464 E7.69955
G1 X83.805 Y107.956 E7.73555
G1 X83.621 Y107.577 E7.76215
G1 X83.325 Y106.813 E7.81392
G1 X82.472 Y104.151 E7.99040
G1 X82.228 Y103.125 E8.05698
G1 X82.081 Y102.145 E8.11957
G1 X82.036 Y101.326 E8.17135
G1 X82.047 Y98.532 E8.34783
G1 X82.132 Y97.481 E8.41442
G1 X82.296 Y96.503 E8.47701
G1 X82.505 Y95.710 E8.52879
G1 X83.379 Y93.056 E8.70527
G1 X83.785 Y92.082 E8.77185
G1 X84.243 Y91.203 E8.83445
G1 X84.687 Y90.514 E8.88622
G1 X86.339 Y88.259 E9.06270
G1 X87.025 Y87.459 E9.12928
G1 X87.189 Y87.295 E9.14393
G1 E7.14393 F2400.00000
G92 E0
G1 X99.223 Y107.612 F7800.000
G1 E2.00000 F2400.00000
G1 X98.678 Y107.847 E2.03745 F1800.000
G1 X98.562 Y107.640 E2.05244
G1 X98.079 Y107.278 E2.09055
G1 X97.315 Y107.021 E2.14147
G1 X96.669 Y106.977 E2.18239
G1 X96.333 Y107.128 E2.20563
G1 X96.272 Y106.822 E2.22533
G1 X96.100 Y106.578 E2.24415
G1 X96.592 Y106.234 E2.28207
G1 X96.888 Y105.938 E2.30846
G1 X97.127 Y105.596 E2.33486
G1 X97.304 Y105.217 E2.36125
G1 X97.395 Y104.877 E2.38352
G1 X97.772 Y105.080 E2.41054
G1 X98.638 Y105.378 E2.46840
G1 X99.134 Y105.461 E2.50017
G1 X98.972 Y106.068 E2.53990
G1 X98.935 Y106.485 E2.56630
G1 X98.972 Y106.901 E2.59269
G1 X99.080 Y107.305 E2.61909
G1 X99.191 Y107.544 E2.63574
G1 X94.801 Y101.991 F7800.000
G1 X94.230 Y102.144 E2.67304 F1800.000
G1 X93.852 Y102.320 E2.69944
G1 X93.509 Y102.560 E2.72583
G1 X93.072 Y102.997 E2.76484
G1 X92.688 Y101.803 E2.84400
G1 X92.167 Y101.211 E2.89381
G1 X92.486 Y100.475 E2.94452
G1 X92.487 Y99.974 E2.97611
G1 X92.897 Y100.166 E3.00467
G1 X93.301 Y100.274 E3.03106
G1 X93.717 Y100.310 E3.05746
G1 X94.134 Y100.274 E3.08385
G1 X94.468 Y100.184 E3.10568
G1 X94.528 Y100.913 E3.15186
G1 X94.783 Y101.918 E3.21732
G1 X93.508 Y104.823 F7800.000
G1 X93.199 Y104.937 E3.23808 F1800.000
G1 X93.040 Y104.713 E3.25541
G1 X92.803 Y104.515 E3.27494
G1 X92.426 Y104.436 E3.29922
G1 X91.916 Y104.608 E3.33325
G1 X91.358 Y104.756 E3.36967
G1 X90.350 Y104.891 E3.43391
G1 X90.846 Y104.313 E3.48195
G1 X91.269 Y103.930 E3.51804
G1 X91.934 Y103.453 E3.56970
G1 X92.084 Y103.126 E3.59240
G1 X92.088 Y102.852 E3.60969
G1 X91.895 Y102.254 E3.64938
G1 X91.677 Y102.006 E3.67023
G1 X91.404 Y101.879 E3.68924
G1 X90.888 Y101.885 E3.72188
G1 X90.312 Y101.853 E3.75830
G1 X89.311 Y101.669 E3.82254
G1 X89.961 Y101.273 E3.87058
G1 X90.480 Y101.041 E3.90649
G1 X91.184 Y100.825 E3.95298
G1 X91.453 Y100.614 E3.97456
G1 X91.594 Y100.288 E3.99699
G1 X91.596 Y99.639 E4.03799
G1 X91.465 Y99.336 E4.05884
G1 X91.245 Y99.130 E4.07786
G1 X90.751 Y98.976 E4.11049
G1 X90.213 Y98.768 E4.14691
G1 X89.318 Y98.285 E4.21115
G1 X90.059 Y98.109 E4.25919
G1 X90.627 Y98.048 E4.29528
G1 X91.445 Y98.052 E4.34694
G1 X91.758 Y97.876 E4.36964
G1 X92.165 Y97.333 E4.41246
G1 X92.238 Y98.173 E4.46567
G1 X92.306 Y98.426 E4.48220
G1 X92.417 Y98.663 E4.49873
G1 X92.569 Y98.881 E4.51554
G1 X92.771 Y99.076 E4.53325
G1 X92.966 Y99.213 E4.54831
G1 X93.204 Y99.323 E4.56484
G1 X93.457 Y99.391 E4.58138
G1 X93.717 Y99.414 E4.59791
G1 X93.978 Y99.391 E4.61444
G1 X94.231 Y99.323 E4.63097
G1 X94.468 Y99.213 E4.64750
G1 X94.683 Y99.063 E4.66403
G1 X94.868 Y98.878 E4.68056
G1 X95.152 Y98.472 E4.71183
G1 X95.558 Y98.658 E4.74001
G1 X95.411 Y99.238 E4.77783
G1 X95.355 Y100.078 E4.83099
G1 X95.412 Y100.766 E4.87454
G1 X95.600 Y101.510 E4.92305
G1 X95.909 Y102.214 E4.97157
G1 X96.424 Y103.002 E5.03100
G1 X96.106 Y103.310 E5.05892
G1 X95.802 Y103.096 E5.08240
G1 X95.564 Y102.986 E5.09893
G1 X95.309 Y102.917 E5.11563
G1 X95.037 Y102.896 E5.13284
G1 X94.790 Y102.918 E5.14852
G1 X94.537 Y102.986 E5.16505
G1 X94.300 Y103.096 E5.18158
G1 X94.085 Y103.246 E5.19811
G1 X93.900 Y103.432 E5.21464
G1 X93.750 Y103.646 E5.23117
G1 X93.639 Y103.883 E5.24770
G1 X93.571 Y104.136 E5.26424
G1 X93.549 Y104.397 E5.28077
G1 X93.584 Y104.795 E5.30602
G1 X93.519 Y104.819 E5.31033
G1 X93.900 Y105.362 E5.35222
G1 X94.085 Y105.547 E5.36876
G1 X94.300 Y105.698 E5.38529
G1 X94.537 Y105.808 E5.40182
G1 X94.790 Y105.876 E5.41835
G1 X95.051 Y105.899 E5.43488
G1 X95.311 Y105.876 E5.45141
G1 X95.564 Y105.808 E5.46795
G1 X95.802 Y105.698 E5.48448
G1 X96.016 Y105.547 E5.50101
G1 X96.201 Y105.362 E5.51754
G1 X96.351 Y105.148 E5.53407
G1 X96.462 Y104.911 E5.55060
G1 X96.530 Y104.658 E5.56713
G1 X96.552 Y104.397 E5.58367
G1 X96.529 Y104.134 E5.60036
G1 X96.456 Y103.871 E5.61757
G1 X96.261 Y103.453 E5.64669
G1 X96.643 Y103.198 E5.67567
G1 X96.849 Y103.422 E5.69496
G1 X97.456 Y103.894 E5.74347
G1 X98.131 Y104.260 E5.79198
G1 X98.858 Y104.509 E5.84049
G1 X99.616 Y104.636 E5.88901
G1 X100.384 Y104.636 E5.93752
G1 X100.817 Y104.564 E5.96520
G1 X100.955 Y105.010 E5.99473
G1 X100.582 Y105.184 E6.02071
G1 X100.368 Y105.334 E6.03724
G1 X100.183 Y105.519 E6.05377
G1 X100.032 Y105.734 E6.07030
G1 X99.922 Y105.971 E6.08683
G1 X99.854 Y106.224 E6.10336
G1 X99.831 Y106.485 E6.11990
G1 X99.854 Y106.746 E6.13643
G1 X99.922 Y106.998 E6.15296
G1 X100.032 Y107.236 E6.16949
G1 X100.183 Y107.450 E6.18602
G1 X100.368 Y107.635 E6.20255
G1 X100.582 Y107.785 E6.21908
G1 X100.819 Y107.896 E6.23562
G1 X101.072 Y107.964 E6.25215
G1 X101.333 Y107.987 E6.26868
G1 X101.594 Y107.964 E6.28521
G1 X102.257 Y107.786 E6.32858
G1 X101.879 Y108.596 E6.38503
G1 X101.885 Y109.112 E6.41766
G1 X101.853 Y109.688 E6.45408
G1 X101.669 Y110.689 E6.51832
G1 X101.273 Y110.039 E6.56636
G1 X101.041 Y109.520 E6.60228
G1 X100.825 Y108.816 E6.64877
G1 X100.614 Y108.547 E6.67034
G1 X100.288 Y108.406 E6.69277
G1 X99.639 Y108.404 E6.73377
G1 X99.336 Y108.535 E6.75462
G1 X99.130 Y108.755 E6.77364
G1 X98.976 Y109.249 E6.80627
G1 X98.768 Y109.787 E6.84269
G1 X98.285 Y110.682 E6.90693
G1 X98.109 Y109.941 E6.95497
G1 X98.048 Y109.373 E6.99107
G1 X98.052 Y108.555 E7.04272
G1 X97.876 Y108.242 E7.06542
G1 X97.659 Y108.079 E7.08258
G1 X97.140 Y107.904 E7.11717
G1 X96.831 Y107.883 E7.13670
G1 X96.480 Y108.040 E7.16099
G1 X96.168 Y108.480 E7.19501
G1 X95.804 Y108.927 E7.23143
G1 X95.068 Y109.629 E7.29567
G1 X95.129 Y108.870 E7.34371
G1 X95.247 Y108.311 E7.37981
G1 X95.504 Y107.534 E7.43146
G1 X95.433 Y107.182 E7.45416
G1 X95.272 Y106.954 E7.47179
G1 X94.691 Y106.546 E7.51664
G1 X94.322 Y106.525 E7.53993
G1 X94.071 Y106.619 E7.55688
G1 X93.731 Y106.884 E7.58411
G1 X93.251 Y107.193 E7.62018
G1 X92.334 Y107.633 E7.68441
G1 X92.627 Y106.931 E7.73246
G1 X92.911 Y106.435 E7.76855
G1 X93.395 Y105.776 E7.82021
G1 X93.499 Y104.898 E7.87607
G1 X93.444 Y104.501 F7800.000
G1 X95.695 Y96.511 F7800.000
G1 X95.259 Y96.075 E7.91502 F1800.000
G1 X94.916 Y95.835 E7.94141
G1 X94.538 Y95.659 E7.96781
G1 X93.972 Y95.507 E8.00480
G1 X94.330 Y94.995 E8.04423
G1 X94.366 Y94.386 E8.08279
G1 X95.199 Y94.200 E8.13672
G1 X96.262 Y93.433 E8.21947
G1 X96.305 Y93.932 E8.25109
G1 X96.413 Y94.335 E8.27749
G1 X96.590 Y94.714 E8.30388
G1 X96.830 Y95.057 E8.33028
G1 X97.058 Y95.284 E8.35062
G1 X96.244 Y95.918 E8.41572
G1 X95.746 Y96.456 E8.46205
G1 X94.826 Y93.369 F7800.000
G1 X95.352 Y92.989 E8.50304 F1800.000
G1 X95.520 Y92.704 E8.52389
G1 X95.557 Y92.406 E8.54291
G1 X95.392 Y91.916 E8.57554
G1 X95.244 Y91.358 E8.61197
G1 X95.109 Y90.350 E8.67620
G1 X95.687 Y90.846 E8.72425
G1 X96.070 Y91.269 E8.76034
G1 X96.547 Y91.934 E8.81199
G1 X96.895 Y92.094 E8.83613
G1 X97.213 Y92.071 E8.85626
G1 X97.512 Y91.972 E8.87616
G1 X97.734 Y92.332 E8.90288
G1 X97.516 Y92.550 E8.92230
G1 X97.366 Y92.764 E8.93883
G1 X97.256 Y93.002 E8.95537
G1 X97.188 Y93.254 E8.97190
G1 X97.165 Y93.515 E8.98843
G1 X97.188 Y93.776 E9.00496
G1 X97.256 Y94.029 E9.02149
G1 X97.366 Y94.266 E9.03802
G1 X97.516 Y94.481 E9.05456
G1 X97.701 Y94.666 E9.07109
G1 X97.916 Y94.816 E9.08762
G1 X98.153 Y94.927 E9.10415
G1 X98.406 Y94.994 E9.12068
G1 X98.877 Y95.035 E9.15051
G1 X98.929 Y95.466 E9.17791
G1 X98.131 Y95.740 E9.23117
G1 X97.456 Y96.106 E9.27969
G1 X96.850 Y96.577 E9.32816
G1 X96.349 Y97.119 E9.37473
G1 X95.909 Y97.785 E9.42514
G1 X95.624 Y98.436 E9.47002
G1 X95.183 Y98.323 E9.49874
G1 X95.219 Y97.912 E9.52479
G1 X95.197 Y97.651 E9.54132
G1 X95.129 Y97.398 E9.55785
G1 X95.018 Y97.161 E9.57439
G1 X94.868 Y96.947 E9.59092
G1 X94.683 Y96.762 E9.60745
G1 X94.468 Y96.611 E9.62398
G1 X94.231 Y96.501 E9.64051
G1 X93.976 Y96.432 E9.65721
G1 X93.704 Y96.411 E9.67442
G1 X93.457 Y96.433 E9.69010
G1 X93.204 Y96.501 E9.70663
G1 X92.966 Y96.611 E9.72316
G1 X92.752 Y96.762 E9.73969
G1 X92.292 Y97.221 E9.78073
G1 X91.960 Y96.480 E9.83203
G1 X91.520 Y96.168 E9.86606
G1 X91.073 Y95.804 E9.90248
G1 X90.371 Y95.068 E9.96672
G1 X91.130 Y95.129 E10.01476
G1 X91.689 Y95.247 E10.05085
G1 X92.466 Y95.504 E10.10251
G1 X92.818 Y95.433 E10.12521
G1 X93.046 Y95.272 E10.14284
G1 X93.453 Y94.691 E10.18768
G1 X93.475 Y94.322 E10.21097
G1 X93.381 Y94.071 E10.22793
G1 X93.116 Y93.731 E10.25516
G1 X92.807 Y93.251 E10.29123
G1 X92.367 Y92.334 E10.35546
G1 X93.069 Y92.627 E10.40350
G1 X93.562 Y92.910 E10.43942
G1 X94.150 Y93.352 E10.48591
G1 X94.479 Y93.446 E10.50748
G1 X94.752 Y93.385 E10.52518
G1 X95.250 Y93.633 F7800.000
G1 E8.52518 F2400.00000
G92 E0
G1 X95.921 Y93.025 F7800.000
G1 X107.206 Y98.611 F7800.000
G1 X107.238 Y98.502 F7800.000
G1 E2.00000 F2400.00000
G1 X105.523 Y99.703 E2.13223 F1800.000
G1 X105.472 Y99.087 E2.17130
G1 X105.199 Y98.009 E2.24149
G1 X105.770 Y97.856 E2.27880
G1 X106.148 Y97.680 E2.30519
G1 X106.491 Y97.440 E2.33158
G1 X106.928 Y97.003 E2.37059
G1 X107.312 Y98.197 E2.44976
G1 X107.833 Y98.788 E2.49957
G1 X107.665 Y99.177 E2.52627
G1 X107.238 Y99.088 E2.55380
G1 X107.238 Y98.577 E2.58604
G1 X102.605 Y95.123 F7800.000
G1 X102.228 Y94.920 E2.61306 F1800.000
G1 X101.362 Y94.622 E2.67092
G1 X100.866 Y94.539 E2.70269
G1 X101.028 Y93.932 E2.74243
G1 X101.065 Y93.515 E2.76882
G1 X101.028 Y93.099 E2.79522
G1 X100.920 Y92.695 E2.82161
G1 X100.777 Y92.388 E2.84299
G1 X101.322 Y92.153 E2.88045
G1 X101.438 Y92.360 E2.89543
G1 X101.921 Y92.722 E2.93354
G1 X102.685 Y92.979 E2.98446
G1 X103.331 Y93.023 E3.02538
G1 X103.667 Y92.872 E3.04863
G1 X103.728 Y93.178 E3.06832
G1 X103.900 Y93.422 E3.08714
G1 X103.408 Y93.766 E3.12506
G1 X103.112 Y94.062 E3.15146
G1 X102.873 Y94.404 E3.17785
G1 X102.696 Y94.783 E3.20425
G1 X102.624 Y95.051 E3.22178
G1 X103.169 Y92.117 F7800.000
G1 X103.520 Y91.960 E3.24606 F1800.000
G1 X103.832 Y91.520 E3.28008
G1 X104.196 Y91.073 E3.31651
G1 X104.932 Y90.371 E3.38074
G1 X104.871 Y91.130 E3.42878
G1 X104.753 Y91.689 E3.46488
G1 X104.496 Y92.466 E3.51653
G1 X104.567 Y92.818 E3.53923
G1 X104.728 Y93.046 E3.55686
G1 X105.309 Y93.453 E3.60171
G1 X105.678 Y93.475 E3.62500
G1 X105.929 Y93.381 E3.64196
G1 X106.269 Y93.116 E3.66919
G1 X106.749 Y92.807 E3.70525
G1 X107.666 Y92.367 E3.76949
G1 X107.373 Y93.069 E3.81753
G1 X107.089 Y93.565 E3.85362
G1 X106.605 Y94.224 E3.90528
G1 X106.492 Y95.177 E3.96587
G1 X106.801 Y95.063 E3.98664
G1 X106.960 Y95.287 E4.00396
G1 X107.197 Y95.485 E4.02350
G1 X107.574 Y95.564 E4.04778
G1 X108.084 Y95.392 E4.08180
G1 X108.642 Y95.244 E4.11823
G1 X109.650 Y95.109 E4.18246
G1 X109.154 Y95.687 E4.23051
G1 X108.731 Y96.070 E4.26660
G1 X108.066 Y96.547 E4.31825
G1 X107.916 Y96.874 E4.34095
G1 X107.912 Y97.148 E4.35825
G1 X108.105 Y97.746 E4.39793
G1 X108.323 Y97.994 E4.41878
G1 X108.596 Y98.121 E4.43780
G1 X109.112 Y98.115 E4.47044
G1 X109.688 Y98.147 E4.50686
G1 X110.689 Y98.331 E4.57109
G1 X110.039 Y98.727 E4.61914
G1 X109.520 Y98.959 E4.65505
G1 X108.816 Y99.175 E4.70154
G1 X108.547 Y99.386 E4.72311
G1 X108.406 Y99.712 E4.74555
G1 X108.404 Y100.361 E4.78654
G1 X108.535 Y100.664 E4.80739
G1 X108.755 Y100.870 E4.82641
G1 X109.249 Y101.024 E4.85905
G1 X109.787 Y101.232 E4.89547
G1 X110.682 Y101.715 E4.95970
G1 X109.941 Y101.891 E5.00775
G1 X109.373 Y101.952 E5.04384
G1 X108.555 Y101.948 E5.09550
G1 X108.242 Y102.124 E5.11820
G1 X107.835 Y102.667 E5.16101
G1 X107.762 Y101.827 E5.21423
G1 X107.694 Y101.574 E5.23076
G1 X107.583 Y101.337 E5.24729
G1 X107.433 Y101.122 E5.26382
G1 X107.248 Y100.937 E5.28035
G1 X107.034 Y100.787 E5.29688
G1 X106.796 Y100.677 E5.31342
G1 X106.346 Y100.556 E5.34288
G1 X106.346 Y100.217 E5.36425
G1 X105.317 Y100.937 E5.44353
G1 X105.132 Y101.122 E5.46006
G1 X104.848 Y101.528 E5.49133
G1 X104.442 Y101.342 E5.51951
G1 X104.588 Y100.766 E5.55707
G1 X104.652 Y100.000 E5.60558
G1 X104.588 Y99.234 E5.65410
G1 X104.399 Y98.489 E5.70266
G1 X104.080 Y97.766 E5.75258
G1 X103.576 Y96.999 E5.81053
G1 X103.894 Y96.690 E5.83848
G1 X104.198 Y96.904 E5.86197
G1 X104.436 Y97.014 E5.87850
G1 X104.689 Y97.082 E5.89503
G1 X104.949 Y97.105 E5.91156
G1 X105.210 Y97.082 E5.92809
G1 X105.463 Y97.014 E5.94463
G1 X105.700 Y96.904 E5.96116
G1 X105.915 Y96.754 E5.97769
G1 X106.100 Y96.568 E5.99422
G1 X106.250 Y96.354 E6.01075
G1 X106.361 Y96.117 E6.02728
G1 X106.429 Y95.864 E6.04381
G1 X106.451 Y95.603 E6.06035
G1 X106.416 Y95.205 E6.08560
G1 X106.481 Y95.181 E6.08990
G1 X106.100 Y94.638 E6.13180
G1 X105.915 Y94.453 E6.14833
G1 X105.700 Y94.302 E6.16487
G1 X105.463 Y94.192 E6.18140
G1 X105.208 Y94.123 E6.19809
G1 X104.936 Y94.102 E6.21530
G1 X104.689 Y94.124 E6.23098
G1 X104.436 Y94.192 E6.24751
G1 X104.198 Y94.302 E6.26405
G1 X103.984 Y94.453 E6.28058
G1 X103.799 Y94.638 E6.29711
G1 X103.649 Y94.852 E6.31364
G1 X103.538 Y95.089 E6.33017
G1 X103.470 Y95.342 E6.34670
G1 X103.448 Y95.603 E6.36323
G1 X103.470 Y95.864 E6.37977
G1 X103.538 Y96.117 E6.39630
G1 X103.739 Y96.547 E6.42627
G1 X103.357 Y96.802 E6.45525
G1 X103.151 Y96.578 E6.47453
G1 X102.544 Y96.106 E6.52305
G1 X101.869 Y95.740 E6.57156
G1 X101.142 Y95.491 E6.62007
G1 X100.384 Y95.364 E6.66859
