; generated by Slic3r 1.2.9 on 2017-09-13 at 15:24:28

; external perimeters extrusion width = 0.50mm
; perimeters extrusion width = 0.72mm
; infill extrusion width = 0.72mm
; solid infill extrusion width = 0.72mm
; top infill extrusion width = 0.72mm

M107
M104 S200 ; set temperature
G28 ; home all axes
G1 Z5 F5000 ; lift nozzle

M109 S200 ; wait for temperature to be reached
G21 ; set units to millimeters
G90 ; use absolute coordinates
M82 ; use absolute distances for extrusion
G92 E0
G1 Z0.500 F7800.000
G1 E-2.00000 F2400.00000
G92 E0
G1 X66.829 Y81.470 F7800.000
G1 E2.00000 F2400.00000
G1 X68.309 Y80.358 E2.11689 F1800.000
G1 X69.134 Y79.826 E2.17887
G1 X70.757 Y78.935 E2.29578
G1 X71.648 Y78.525 E2.35773
G1 X73.350 Y77.886 E2.47254
G1 X74.322 Y77.595 E2.53660
G1 X76.130 Y77.197 E2.65350
G1 X76.642 Y77.104 E2.68632
G1 X94.007 Y74.631 E3.79395
G1 X94.902 Y74.543 E3.85072
G1 X96.101 Y74.543 E3.92641
G1 X96.622 Y74.589 E3.95949 F1800.000
G1 X97.805 Y74.797 E4.03530
G1 X98.310 Y74.933 E4.06832
G1 X99.439 Y75.344 E4.14419
G1 X99.913 Y75.565 E4.17722
G1 X100.784 Y76.050 E4.24017
G1 X136.284 Y99.365 E6.92206
G1 X137.025 Y99.880 E6.97903
G1 X137.945 Y100.652 E7.05491
G1 X138.438 Y101.145 E7.09893
G1 X139.210 Y102.066 E7.17480
G1 X139.610 Y102.637 E7.21883
G1 X140.211 Y103.677 E7.29469
G1 X140.506 Y104.309 E7.33872
G1 X140.917 Y105.438 E7.41459
G1 X141.097 Y106.112 E7.45862
G1 X141.306 Y107.295 E7.53448
G1 X141.366 Y107.990 E7.57851
G1 X141.366 Y109.191 E7.65439
G1 X141.306 Y109.887 E7.69851
G1 X141.097 Y111.069 E7.77428
G1 X140.916 Y111.743 E7.81834
G1 X140.506 Y112.871 E7.89418
G1 X140.210 Y113.505 E7.93829
G1 X139.610 Y114.544 E8.01407
G1 X139.217 Y115.106 E8.05737
G1 X138.438 Y116.035 E8.13396
G1 X137.944 Y116.530 E8.17809
G1 X137.025 Y117.301 E8.25386
G1 X136.453 Y117.701 E8.29789
G1 X135.413 Y118.301 E8.37376
G1 X134.781 Y118.596 E8.41779
G1 X133.652 Y119.007 E8.49365
G1 X132.978 Y119.188 E8.53774
G1 X132.356 Y119.324 E8.57789
G1 X97.183 Y125.339 E10.83120
G1 X96.622 Y125.411 E10.86692
G1 X95.500 Y125.483 E10.93790
G1 X69.500 Y125.483 E12.57968
G1 X68.378 Y125.411 E12.65066
G1 X67.195 Y125.203 E12.72653
G1 X66.690 Y125.067 E12.75955
G1 X65.561 Y124.656 E12.83541
G1 X65.086 Y124.435 E12.86850
G1 X64.046 Y123.835 E12.94431
G1 X63.626 Y123.540 E12.97674
G1 X62.698 Y122.762 E13.05319
G1 X62.328 Y122.393 E13.08621
G1 X61.556 Y121.472 E13.16208
G1 X61.256 Y121.044 E13.19510
G1 X60.655 Y120.003 E13.27097
G1 X60.434 Y119.529 E13.30400
G1 X60.023 Y118.400 E13.37986
G1 X59.887 Y117.894 E13.41295
G1 X59.684 Y116.763 E13.48555
G1 X58.641 Y105.778 E14.18231
G1 X58.607 Y105.090 E14.22577
G1 X58.607 Y102.290 E14.40258
G1 X58.634 Y101.690 E14.44054
G1 X58.696 Y101.149 E14.47493
G1 X59.896 Y93.483 E14.96490
G1 X60.289 Y91.672 E15.08187
G1 X60.565 Y90.731 E15.14383
G1 X61.210 Y88.996 E15.26072
G1 X61.617 Y88.103 E15.32270
G1 X62.487 Y86.506 E15.43750
G1 X63.033 Y85.651 E15.50156
G1 X64.140 Y84.168 E15.61846
G1 X64.781 Y83.425 E15.68041
G1 X66.089 Y82.114 E15.79732
G1 X66.773 Y81.519 E15.85456
G1 E13.85456 F2400.00000
G92 E0
G1 X130.500 Y111.092 F7800.000
G1 E2.00000 F2400.00000
G1 X130.066 Y111.054 E2.02754 F1800.000
G1 X129.644 Y110.941 E2.05508
G1 X129.249 Y110.757 E2.08262
G1 X128.892 Y110.507 E2.11015
G1 X128.583 Y110.199 E2.13769
G1 X128.333 Y109.841 E2.16523
G1 X128.149 Y109.446 E2.19277
G1 X128.036 Y109.025 E2.22031
G1 X127.998 Y108.590 E2.24785
G1 X128.036 Y108.156 E2.27539
G1 X128.149 Y107.735 E2.30292
G1 X128.333 Y107.339 E2.33046
G1 X128.583 Y106.982 E2.35800
G1 X128.892 Y106.674 E2.38554
G1 X129.249 Y106.424 E2.41308
G1 X129.644 Y106.239 E2.44062
G1 X130.066 Y106.127 E2.46816
G1 X130.493 Y106.089 E2.49525 F1800.000
G1 X130.934 Y106.126 E2.52318
G1 X131.356 Y106.239 E2.55077
G1 X131.751 Y106.424 E2.57830
G1 X132.108 Y106.674 E2.60584
G1 X132.417 Y106.982 E2.63338
G1 X132.667 Y107.339 E2.66092
G1 X132.851 Y107.735 E2.68846
G1 X132.964 Y108.156 E2.71600
G1 X133.002 Y108.590 E2.74353
G1 X132.964 Y109.025 E2.77107
G1 X132.851 Y109.446 E2.79861
G1 X132.670 Y109.835 E2.82571
G1 X132.417 Y110.198 E2.85363
G1 X132.108 Y110.507 E2.88122
G1 X131.751 Y110.757 E2.90876
G1 X131.356 Y110.941 E2.93630
G1 X130.934 Y111.054 E2.96384
G1 X130.575 Y111.086 E2.98664
G1 X130.271 Y111.464 F7800.000
G1 E0.98664 F2400.00000
G92 E0
G1 X127.542 Y108.069 F7800.000
G1 X101.919 Y108.007 F7800.000
G1 X100.892 Y102.878 F7800.000
G1 X100.316 Y101.789 F7800.000
G1 X99.666 Y100.880 F7800.000
G1 X99.545 Y100.724 F7800.000
G1 X99.473 Y100.635 F7800.000
G1 X99.199 Y100.308 F7800.000
G1 X99.274 Y100.364 F7800.000
G1 E2.00000 F2400.00000
G1 X98.688 Y100.313 E2.03711 F1800.000
G1 X98.688 Y99.736 E2.07352
G1 X99.206 Y99.597 E2.10740
G1 X99.267 Y100.289 E2.15127
G1 X97.795 Y101.254 F7800.000
G1 X97.795 Y98.867 E2.30201 F1800.000
G1 X98.103 Y98.894 E2.32149
G1 X98.519 Y98.857 E2.34789
G1 X98.923 Y98.749 E2.37428
G1 X99.302 Y98.572 E2.40068
G1 X99.644 Y98.333 E2.42707
G1 X100.107 Y97.869 E2.46843
G1 X100.107 Y99.651 E2.58094
G1 X100.199 Y100.701 E2.64751
G1 X100.583 Y102.132 E2.74105
G1 X99.699 Y101.514 E2.80917
G1 X99.320 Y101.337 E2.83556
G1 X98.916 Y101.229 E2.86196
G1 X98.500 Y101.192 E2.88835
G1 X97.870 Y101.247 E2.92828
G1 X100.288 Y96.862 F7800.000
G1 X99.795 Y94.383 F7800.000
G1 X98.951 Y89.807 F7800.000
G1 X98.380 Y88.903 F7800.000
G1 X98.293 Y88.755 F7800.000
G1 X97.975 Y88.359 F7800.000
G1 X97.795 Y88.504 F7800.000
G1 X92.635 Y88.504 E3.25411 F1800.000
G1 X92.517 Y88.130 E3.27891
G1 X92.684 Y88.013 E3.29178
G1 X93.103 Y87.594 E3.32918
G1 X93.446 Y87.104 E3.36695
G1 X93.801 Y87.352 E3.39431
G1 X94.338 Y87.603 E3.43171
G1 X94.910 Y87.756 E3.46911
G1 X95.500 Y87.808 E3.50651
G1 X96.090 Y87.756 E3.54392
G1 X96.662 Y87.603 E3.58132
G1 X97.199 Y87.352 E3.61872
G1 X97.503 Y87.139 E3.64218
G1 X97.814 Y87.617 E3.67817
G1 X98.192 Y88.029 E3.71348
G1 X98.632 Y88.374 E3.74878
G1 X99.123 Y88.642 E3.78409
G1 X99.744 Y88.859 E3.82566
G1 X99.909 Y88.967 E3.83814
G1 X99.976 Y89.041 E3.84441
G1 X100.070 Y89.215 E3.85689
G1 X100.107 Y89.467 E3.87300
G1 X100.107 Y95.122 E4.23007
G1 X99.644 Y94.659 E4.27143
G1 X99.302 Y94.419 E4.29783
G1 X98.923 Y94.242 E4.32422
G1 X98.519 Y94.134 E4.35062
G1 X98.103 Y94.098 E4.37701
G1 X97.795 Y94.125 E4.39649
G1 X97.795 Y88.579 E4.74666
G1 X84.132 Y87.611 F7800.000
G1 X74.860 Y87.611 E5.33211 F1800.000
G1 X74.757 Y87.209 E5.35836
G1 X75.029 Y87.060 E5.37795
G1 X76.457 Y86.523 E5.47423
G1 X77.916 Y86.202 E5.56862
G1 X79.469 Y86.082 E5.66697
G1 X80.988 Y86.185 E5.76308
G1 X82.479 Y86.504 E5.85937
G1 X83.910 Y87.032 E5.95566
G1 X84.234 Y87.207 E5.97895
G1 X84.150 Y87.539 E6.00054
G1 X87.140 Y88.504 F7800.000
G1 X71.870 Y88.504 E6.96477 F1800.000
G1 X71.748 Y88.138 E6.98913
G1 X73.207 Y87.041 E7.10442
G1 X74.656 Y86.246 E7.20876
G1 X76.202 Y85.665 E7.31310
G1 X77.785 Y85.316 E7.41546
G1 X79.465 Y85.187 E7.52186
G1 X81.112 Y85.299 E7.62608
G1 X82.728 Y85.645 E7.73042
G1 X84.278 Y86.216 E7.83476
G1 X85.732 Y87.002 E7.93909
G1 X87.261 Y88.136 E8.05933
G1 X87.163 Y88.433 E8.07904
G1 X96.903 Y89.397 F7800.000
G1 X96.903 Y95.509 E8.46502 F1800.000
G1 X97.352 Y95.195 E8.49964
G1 X97.589 Y95.084 E8.51617
G1 X97.842 Y95.017 E8.53270
G1 X98.103 Y94.994 E8.54923
G1 X98.364 Y95.017 E8.56577
G1 X98.616 Y95.084 E8.58230
G1 X98.854 Y95.195 E8.59883
G1 X99.068 Y95.345 E8.61536
G1 X99.253 Y95.530 E8.63189
G1 X99.403 Y95.745 E8.64842
G1 X99.514 Y95.982 E8.66495
G1 X99.582 Y96.235 E8.68149
G1 X99.605 Y96.496 E8.69802
G1 X99.582 Y96.756 E8.71455
G1 X99.514 Y97.009 E8.73108
G1 X99.403 Y97.247 E8.74761
G1 X99.253 Y97.461 E8.76414
G1 X99.068 Y97.646 E8.78067
G1 X98.854 Y97.796 E8.79721
G1 X98.616 Y97.907 E8.81374
G1 X98.364 Y97.975 E8.83027
G1 X98.103 Y97.998 E8.84680
G1 X97.842 Y97.975 E8.86333
G1 X97.589 Y97.907 E8.87986
G1 X97.352 Y97.796 E8.89640
G1 X96.903 Y97.482 E8.93101
G1 X96.903 Y103.072 E9.28399
G1 X97.535 Y102.440 E9.34041
G1 X97.749 Y102.290 E9.35694
G1 X97.986 Y102.179 E9.37347
G1 X98.239 Y102.111 E9.39001
G1 X98.500 Y102.089 E9.40654
G1 X98.761 Y102.111 E9.42307
G1 X99.014 Y102.179 E9.43960
G1 X99.251 Y102.290 E9.45613
G1 X99.465 Y102.440 E9.47266
G1 X99.651 Y102.625 E9.48920
G1 X99.801 Y102.839 E9.50573
G1 X99.911 Y103.077 E9.52226
G1 X99.979 Y103.330 E9.53879
G1 X100.002 Y103.590 E9.55532
G1 X99.979 Y103.851 E9.57185
G1 X99.911 Y104.104 E9.58839
G1 X99.801 Y104.341 E9.60492
G1 X99.651 Y104.556 E9.62145
G1 X99.465 Y104.741 E9.63798
G1 X99.251 Y104.891 E9.65451
G1 X99.014 Y105.002 E9.67104
G1 X98.761 Y105.070 E9.68757
G1 X98.500 Y105.092 E9.70411
G1 X98.239 Y105.070 E9.72064
G1 X97.986 Y105.002 E9.73717
G1 X97.749 Y104.891 E9.75370
G1 X97.535 Y104.741 E9.77023
G1 X97.349 Y104.556 E9.78676
G1 X97.199 Y104.341 E9.80329
G1 X97.089 Y104.104 E9.81983
G1 X97.021 Y103.851 E9.83636
G1 X96.999 Y103.597 E9.85249
G1 X72.503 Y103.597 E11.39929
G1 X72.503 Y97.412 E11.78984
G1 X71.954 Y97.796 E11.83217
G1 X71.716 Y97.907 E11.84870
G1 X71.464 Y97.975 E11.86523
G1 X71.203 Y97.998 E11.88176
G1 X70.942 Y97.975 E11.89829
G1 X70.689 Y97.907 E11.91482
G1 X70.452 Y97.796 E11.93136
G1 X70.237 Y97.646 E11.94789
G1 X70.052 Y97.461 E11.96442
G1 X69.902 Y97.247 E11.98095
G1 X69.791 Y97.009 E11.99748
G1 X69.724 Y96.756 E12.01401
G1 X69.701 Y96.496 E12.03055
G1 X69.724 Y96.235 E12.04708
G1 X69.791 Y95.982 E12.06361
G1 X69.902 Y95.745 E12.08014
G1 X70.052 Y95.530 E12.09667
G1 X70.237 Y95.345 E12.11320
G1 X70.452 Y95.195 E12.12973
G1 X70.689 Y95.084 E12.14627
G1 X70.942 Y95.017 E12.16280
G1 X71.195 Y94.994 E12.17885
G1 X71.462 Y95.016 E12.19576
G1 X71.716 Y95.084 E12.21239
G1 X71.954 Y95.195 E12.22892
G1 X72.503 Y95.579 E12.27124
G1 X72.503 Y89.397 E12.66165
G1 X96.828 Y89.397 E14.19766
G1 X97.403 Y89.397 F7800.000
G1 E12.19766 F2400.00000
G92 E0
G1 X97.755 Y98.469 F7800.000
G1 X100.316 Y101.789 F7800.000
G1 X100.996 Y103.102 F7800.000
G1 X101.295 Y104.010 F7800.000
G1 X101.346 Y104.172 F7800.000
G1 X101.450 Y104.562 F7800.000
G1 X101.502 Y104.798 F7800.000
G1 X101.518 Y104.884 F7800.000
G1 E2.00000 F2400.00000
G1 X101.811 Y105.178 E2.02624 F1800.000
G1 X102.853 Y105.907 E2.10653
G1 X104.005 Y106.445 E2.18682
G1 X105.233 Y106.774 E2.26710
G1 X106.400 Y106.876 E2.34106
G1 X126.531 Y106.876 E3.61222
G1 X126.271 Y107.845 E3.67556
G1 X126.206 Y108.590 E3.72282
G1 X126.271 Y109.336 E3.77009
G1 X126.531 Y110.305 E3.83343
G1 X100.400 Y110.305 E5.48346
G1 X99.754 Y110.362 E5.52440
G1 X99.031 Y110.555 E5.57166
G1 X98.353 Y110.872 E5.61893
G1 X97.740 Y111.301 E5.66620
G1 X97.321 Y111.720 E5.70358
G1 X96.969 Y111.555 E5.72814
G1 X96.246 Y111.362 E5.77540
G1 X95.500 Y111.296 E5.82267
G1 X94.754 Y111.362 E5.86993
G1 X94.028 Y111.556 E5.91742
G1 X93.679 Y111.720 E5.94175
G1 X93.260 Y111.301 E5.97917
G1 X92.647 Y110.872 E6.02644
G1 X91.969 Y110.555 E6.07370
G1 X91.246 Y110.362 E6.12097
G1 X90.600 Y110.305 E6.16191
G1 X74.400 Y110.305 E7.18484
G1 X73.751 Y110.362 E7.22600
G1 X73.022 Y110.559 E7.27365
G1 X72.353 Y110.872 E7.32030
G1 X71.740 Y111.301 E7.36757
G1 X71.321 Y111.720 E7.40496
G1 X70.969 Y111.555 E7.42951
G1 X70.242 Y111.361 E7.47700
G1 X69.490 Y111.297 E7.52465
G1 X68.785 Y111.359 E7.56933
G1 X68.785 Y106.777 E7.85864
G1 X69.127 Y106.686 E7.88095
G1 X69.647 Y106.443 E7.91720
G1 X70.117 Y106.114 E7.95346
G1 X70.523 Y105.708 E7.98972
G1 X70.751 Y105.382 E8.01482
G1 X95.749 Y105.382 E9.59328
G1 X95.977 Y105.708 E9.61838
G1 X96.383 Y106.114 E9.65464
G1 X96.853 Y106.443 E9.69090
G1 X97.373 Y106.686 E9.72715
G1 X97.928 Y106.835 E9.76341
G1 X98.500 Y106.885 E9.79967
G1 X99.072 Y106.834 E9.83593
G1 X99.627 Y106.686 E9.87219
G1 X100.147 Y106.443 E9.90845
G1 X100.617 Y106.114 E9.94470
G1 X101.023 Y105.708 E9.98096
G1 X101.353 Y105.237 E10.01722
G1 X101.486 Y104.952 E10.03710
G1 X95.150 Y108.585 F7800.000
G1 X71.787 Y107.625 F7800.000
G1 X70.986 Y104.027 F7800.000
G1 X70.924 Y102.626 F7800.000
G1 X70.813 Y102.086 F7800.000
G1 X70.756 Y101.874 F7800.000
G1 X70.646 Y101.524 F7800.000
G1 X70.717 Y101.667 F7800.000
G1 X70.117 Y101.067 E10.09067 F1800.000
G1 X69.647 Y100.738 E10.12693
G1 X69.127 Y100.495 E10.16319
G1 X68.779 Y100.402 E10.18589
G1 X68.782 Y98.807 E10.28662
G1 X69.556 Y99.348 E10.34625
G1 X70.076 Y99.591 E10.38251
G1 X70.717 Y99.763 E10.42443
G1 X70.717 Y101.592 E10.53992
G1 X69.215 Y93.802 F7800.000
G1 X69.755 Y92.350 E10.63773 F1800.000
G1 X70.314 Y91.324 E10.71148
G1 X70.717 Y91.427 E10.73777
G1 X70.717 Y93.228 E10.85150
G1 X70.076 Y93.400 E10.89343
G1 X69.283 Y93.770 E10.94869
G1 X71.610 Y104.489 F7800.000
G1 X96.283 Y104.489 E12.50670 F1800.000
G1 X96.423 Y104.789 E12.52760
G1 X96.663 Y105.132 E12.55400
G1 X96.959 Y105.427 E12.58039
G1 X97.301 Y105.667 E12.60679
G1 X97.680 Y105.844 E12.63318
G1 X98.084 Y105.952 E12.65958
G1 X98.500 Y105.988 E12.68597
G1 X98.916 Y105.952 E12.71237
G1 X99.320 Y105.844 E12.73876
G1 X99.699 Y105.667 E12.76516
G1 X100.041 Y105.427 E12.79155
G1 X100.337 Y105.132 E12.81794
G1 X100.577 Y104.789 E12.84434
G1 X100.753 Y104.411 E12.87073
G1 X100.862 Y104.007 E12.89713
G1 X100.898 Y103.590 E12.92353
G1 X100.878 Y103.366 E12.93774
G1 X101.265 Y103.226 E12.96369
G1 X101.599 Y103.703 E13.00048
G1 X102.387 Y104.492 E13.07091
G1 X103.301 Y105.131 E13.14133
G1 X104.312 Y105.603 E13.21175
G1 X105.389 Y105.891 E13.28217
G1 X106.439 Y105.983 E13.34874
G1 X128.193 Y105.983 E14.72241
G1 X127.557 Y106.891 E14.79243
G1 X127.307 Y107.428 E14.82983
G1 X127.154 Y108.000 E14.86724
G1 X127.102 Y108.590 E14.90464
G1 X127.154 Y109.180 E14.94204
G1 X127.307 Y109.753 E14.97944
G1 X127.557 Y110.289 E15.01684
G1 X128.193 Y111.198 E15.08686
G1 X100.439 Y111.198 E16.83940
G1 X99.910 Y111.244 E16.87295
G1 X99.338 Y111.397 E16.91035
G1 X98.801 Y111.648 E16.94776
G1 X98.316 Y111.987 E16.98516
G1 X97.897 Y112.406 E17.02256
G1 X97.554 Y112.896 E17.06033
G1 X97.199 Y112.648 E17.08769
G1 X96.662 Y112.397 E17.12509
G1 X96.090 Y112.244 E17.16249
G1 X95.500 Y112.192 E17.19989
G1 X94.910 Y112.244 E17.23729
G1 X94.336 Y112.398 E17.27483
G1 X93.794 Y112.652 E17.31262
G1 X93.446 Y112.896 E17.33945
G1 X93.103 Y112.406 E17.37722
G1 X92.684 Y111.987 E17.41462
G1 X92.199 Y111.648 E17.45202
G1 X91.662 Y111.397 E17.48942
G1 X91.090 Y111.244 E17.52683
G1 X90.561 Y111.198 E17.56037
G1 X74.439 Y111.198 E18.57838
G1 X73.908 Y111.244 E18.61206
G1 X73.330 Y111.401 E18.64985
G1 X72.801 Y111.648 E18.68673
G1 X72.316 Y111.987 E18.72413
G1 X71.897 Y112.406 E18.76153
G1 X71.554 Y112.896 E18.79930
G1 X71.199 Y112.648 E18.82666
G1 X70.662 Y112.397 E18.86406
G1 X70.088 Y112.243 E18.90160
G1 X69.492 Y112.193 E18.93938
G1 X68.910 Y112.244 E18.97626
G1 X68.338 Y112.397 E19.01366
G1 X67.893 Y112.605 E19.04467
G1 X67.893 Y105.998 E19.46188
G1 X68.416 Y105.952 E19.49508
G1 X68.820 Y105.844 E19.52147
G1 X69.199 Y105.667 E19.54786
G1 X69.541 Y105.427 E19.57426
G1 X69.837 Y105.132 E19.60065
G1 X70.077 Y104.789 E19.62705
G1 X70.253 Y104.411 E19.65344
G1 X70.362 Y104.007 E19.67984
G1 X70.398 Y103.590 E19.70623
G1 X70.362 Y103.174 E19.73263
G1 X70.253 Y102.770 E19.75903
G1 X70.077 Y102.391 E19.78542
G1 X69.837 Y102.049 E19.81181
G1 X69.541 Y101.753 E19.83821
G1 X69.199 Y101.514 E19.86460
G1 X68.820 Y101.337 E19.89100
G1 X68.416 Y101.229 E19.91740
G1 X67.885 Y101.182 E19.95105
G1 X67.893 Y96.841 E20.22518
G1 X68.014 Y95.142 E20.33273
G1 X68.364 Y93.528 E20.43707
G1 X68.941 Y91.979 E20.54140
G1 X69.716 Y90.556 E20.64376
G1 X70.721 Y89.203 E20.75016
G1 X71.610 Y88.311 E20.82969
G1 X71.610 Y94.133 E21.19730
G1 X71.192 Y94.099 E21.22375
G1 X70.786 Y94.134 E21.24950
G1 X70.383 Y94.242 E21.27589
G1 X70.004 Y94.419 E21.30229
G1 X69.661 Y94.659 E21.32868
G1 X69.366 Y94.954 E21.35508
G1 X69.126 Y95.297 E21.38147
G1 X68.949 Y95.675 E21.40787
G1 X68.841 Y96.079 E21.43426
G1 X68.805 Y96.496 E21.46066
G1 X68.841 Y96.912 E21.48705
G1 X68.949 Y97.316 E21.51345
G1 X69.126 Y97.695 E21.53984
G1 X69.366 Y98.037 E21.56624
G1 X69.661 Y98.333 E21.59263
G1 X70.004 Y98.572 E21.61903
G1 X70.383 Y98.749 E21.64542
G1 X70.786 Y98.857 E21.67182
G1 X71.203 Y98.894 E21.69821
G1 X71.610 Y98.858 E21.72403
G1 X71.610 Y104.414 E22.07490
G1 X67.000 Y105.090 F7800.000
G1 X66.000 Y105.090 E22.13804 F1800.000
G1 X66.000 Y103.707 E22.22543
