; generated by Slic3r 1.2.9 on 2017-09-13 at 15:24:54

; external perimeters extrusion width = 0.50mm
; perimeters extrusion width = 0.72mm
; infill extrusion width = 0.72mm
; solid infill extrusion width = 0.72mm
; top infill extrusion width = 0.72mm

M107
M104 S200 ; set temperature
G28 ; home all axes
G1 Z5 F5000 ; lift nozzle

M109 S200 ; wait for temperature to be reached
G21 ; set units to millimeters
G90 ; use absolute coordinates
M82 ; use absolute distances for extrusion
G92 E0
G1 Z0.500 F7800.000
G1 E-2.00000 F2400.00000
G92 E0
G1 X69.262 Y91.265 F7800.000
G1 E2.00000 F2400.00000
G1 X71.437 Y90.404 E2.14774 F1800.000
G1 X72.850 Y90.257 E2.23742
G1 X127.150 Y90.257 E5.66622
G1 X129.456 Y90.654 E5.81397
G1 X131.496 Y91.800 E5.96171 F1800.000
G1 X133.035 Y93.562 E6.10945
G1 X133.896 Y95.737 E6.25719
G1 X134.043 Y97.150 E6.34687
G1 X134.043 Y100.103 E6.53332
G1 X134.013 Y100.745 E6.57395
G1 X133.831 Y101.853 E6.64483
G1 X133.421 Y103.066 E6.72567
G1 X132.847 Y104.131 E6.80205
G1 X132.324 Y104.841 E6.85772
G1 X130.271 Y107.284 E7.05929
G1 X128.483 Y108.794 E7.20703
G1 X126.294 Y109.619 E7.35477
G1 X124.994 Y109.743 E7.43724
G1 X74.113 Y109.743 E10.65010
G1 X71.808 Y109.346 E10.79784
G1 X69.768 Y108.200 E10.94559
G1 X67.899 Y105.831 E11.13614
G1 X66.542 Y102.981 E11.33547
G1 X66.167 Y101.844 E11.41105
G1 X65.986 Y100.742 E11.48156
G1 X65.957 Y100.103 E11.52194
G1 X65.957 Y97.150 E11.70842
G1 X66.354 Y94.844 E11.85616
G1 X67.500 Y92.804 E12.00390
G1 X69.205 Y91.314 E12.14690
G1 E10.14690 F2400.00000
G92 E0
G1 X125.757 Y99.207 F7800.000
G1 E2.00000 F2400.00000
G1 X74.247 Y99.207 E5.25264 F1800.000
G1 X74.246 Y98.543 E5.29460
G1 X125.757 Y98.543 E8.54733
G1 X125.757 Y99.132 E8.58456
G1 X125.463 Y100.100 F7800.000
G1 X124.686 Y102.233 E8.72788 F1800.000
G1 X123.910 Y100.100 E8.87119
G1 X122.321 Y100.100 E8.97154
G1 X121.545 Y102.233 E9.11485
G1 X120.768 Y100.100 E9.25817
G1 X119.179 Y100.100 E9.35851
G1 X118.403 Y102.233 E9.50183
G1 X117.627 Y100.100 E9.64515
G1 X116.038 Y100.100 E9.74549
G1 X115.261 Y102.233 E9.88881
G1 X114.485 Y100.100 E10.03212
G1 X112.896 Y100.100 E10.13247
G1 X112.120 Y102.233 E10.27578
G1 X111.344 Y100.100 E10.41910
G1 X109.755 Y100.100 E10.51944
G1 X108.978 Y102.233 E10.66276
G1 X108.202 Y100.100 E10.80608
G1 X106.613 Y100.100 E10.90642
G1 X105.837 Y102.233 E11.04974
G1 X105.060 Y100.100 E11.19305
G1 X103.471 Y100.100 E11.29340
G1 X102.695 Y102.233 E11.43671
G1 X101.919 Y100.100 E11.58003
G1 X100.330 Y100.100 E11.68037
G1 X99.554 Y102.233 E11.82369
G1 X98.777 Y100.100 E11.96701
G1 X97.188 Y100.100 E12.06735
G1 X96.412 Y102.233 E12.21067
G1 X95.636 Y100.100 E12.35398
G1 X94.047 Y100.100 E12.45433
G1 X93.270 Y102.233 E12.59764
G1 X92.494 Y100.100 E12.74096
G1 X90.905 Y100.100 E12.84130
G1 X90.129 Y102.233 E12.98462
G1 X89.353 Y100.100 E13.12794
G1 X87.763 Y100.100 E13.22828
G1 X86.987 Y102.233 E13.37160
G1 X86.211 Y100.100 E13.51491
G1 X84.622 Y100.100 E13.61526
G1 X83.846 Y102.233 E13.75857
G1 X83.069 Y100.100 E13.90189
G1 X81.480 Y100.100 E14.00223
G1 X80.704 Y102.233 E14.14555
G1 X79.928 Y100.100 E14.28887
G1 X78.339 Y100.100 E14.38921
G1 X77.562 Y102.233 E14.53253
G1 X76.786 Y100.100 E14.67584
G1 X75.197 Y100.100 E14.77619
G1 X74.421 Y102.233 E14.91950
G1 X73.677 Y100.188 E15.05691
G1 X73.356 Y100.098 E15.07791
G1 X73.351 Y97.650 E15.23250
G1 X126.650 Y97.650 E18.59808
G1 X126.650 Y100.100 E18.75279
G1 X125.538 Y100.100 E18.82304
G1 X124.976 Y99.985 F7800.000
G1 Z0.800 F7800.000
G1 X125.700 Y99.150 F7800.000
G1 X74.304 Y99.150 E20.25072 F3600.000
G1 X74.303 Y98.600 E20.26602
G1 X125.700 Y98.600 E21.69374
G1 X125.700 Y99.075 E21.70696
G1 X125.256 Y99.805 F7800.000
G1 X124.686 Y101.370 E21.75322 F3600.000
G1 X124.117 Y99.805 E21.79949
G1 X122.114 Y99.805 E21.85511
G1 X121.545 Y101.370 E21.90137
G1 X120.975 Y99.805 E21.94764
G1 X118.973 Y99.805 E22.00326
G1 X118.403 Y101.370 E22.04952
G1 X117.833 Y99.805 E22.09579
G1 X115.831 Y99.805 E22.15141
G1 X115.261 Y101.370 E22.19767
G1 X114.692 Y99.805 E22.24394
G1 X112.690 Y99.805 E22.29956
G1 X112.120 Y101.370 E22.34582
G1 X111.550 Y99.805 E22.39209
G1 X109.548 Y99.805 E22.44771
G1 X108.978 Y101.370 E22.49397
G1 X108.409 Y99.805 E22.54024
G1 X106.406 Y99.805 E22.59586
G1 X105.837 Y101.370 E22.64212
G1 X105.267 Y99.805 E22.68839
G1 X103.265 Y99.805 E22.74401
G1 X102.695 Y101.370 E22.79027
G1 X102.125 Y99.805 E22.83654
G1 X100.123 Y99.805 E22.89216
G1 X99.554 Y101.370 E22.93842
G1 X98.984 Y99.805 E22.98469
G1 X96.982 Y99.805 E23.04031
G1 X96.412 Y101.370 E23.08657
G1 X95.842 Y99.805 E23.13284
G1 X93.840 Y99.805 E23.18846
G1 X93.270 Y101.370 E23.23472
G1 X92.701 Y99.805 E23.28099
G1 X90.698 Y99.805 E23.33661
G1 X90.129 Y101.370 E23.38287
G1 X89.559 Y99.805 E23.42914
G1 X87.557 Y99.805 E23.48476
G1 X86.987 Y101.370 E23.53102
G1 X86.418 Y99.805 E23.57729
G1 X84.415 Y99.805 E23.63291
G1 X83.846 Y101.370 E23.67917
G1 X83.276 Y99.805 E23.72544
G1 X81.274 Y99.805 E23.78106
G1 X80.704 Y101.370 E23.82732
G1 X80.134 Y99.805 E23.87359
G1 X78.132 Y99.805 E23.92921
G1 X77.562 Y101.370 E23.97547
G1 X76.993 Y99.805 E24.02174
G1 X74.990 Y99.805 E24.07736
G1 X74.421 Y101.370 E24.12362
G1 X73.902 Y99.945 E24.16576
G1 X73.651 Y99.874 E24.17300
G1 X73.647 Y97.945 E24.22659
G1 X126.355 Y97.945 E25.69071
G1 X126.355 Y99.805 E25.74237
G1 X125.331 Y99.805 E25.77081
G1 X123.735 Y100.350 F7800.000
G1 X122.496 Y100.350 E25.79372 F1800.000
G1 X121.677 Y102.600 E25.83799
G1 X121.412 Y102.600 E25.84288
G1 X120.593 Y100.350 E25.88715
G1 X119.354 Y100.350 E25.91006
G1 X118.535 Y102.600 E25.95433
G1 X118.271 Y102.600 E25.95922
G1 X117.452 Y100.350 E26.00349
G1 X116.213 Y100.350 E26.02640
G1 X115.394 Y102.600 E26.07066
G1 X115.129 Y102.600 E26.07556
G1 X114.310 Y100.350 E26.11983
G1 X113.071 Y100.350 E26.14273
G1 X112.252 Y102.600 E26.18700
G1 X111.988 Y102.600 E26.19190
G1 X111.169 Y100.350 E26.23617
G1 X109.930 Y100.350 E26.25907
G1 X109.111 Y102.600 E26.30334
G1 X108.846 Y102.600 E26.30824
G1 X108.027 Y100.350 E26.35250
G1 X106.788 Y100.350 E26.37541
G1 X105.969 Y102.600 E26.41968
G1 X105.704 Y102.600 E26.42457
G1 X104.885 Y100.350 E26.46884
G1 X103.646 Y100.350 E26.49175
G1 X102.828 Y102.600 E26.53602
G1 X102.563 Y102.600 E26.54091
G1 X101.744 Y100.350 E26.58518
G1 X100.505 Y100.350 E26.60809
G1 X99.686 Y102.600 E26.65235
G1 X99.421 Y102.600 E26.65725
G1 X98.602 Y100.350 E26.70152
G1 X97.363 Y100.350 E26.72442
G1 X96.544 Y102.600 E26.76869
G1 X96.280 Y102.600 E26.77359
G1 X95.461 Y100.350 E26.81786
G1 X94.222 Y100.350 E26.84076
G1 X93.403 Y102.600 E26.88503
G1 X93.138 Y102.600 E26.88992
G1 X92.319 Y100.350 E26.93419
G1 X91.080 Y100.350 E26.95710
G1 X90.261 Y102.600 E27.00137
G1 X89.996 Y102.600 E27.00626
G1 X89.177 Y100.350 E27.05053
G1 X87.938 Y100.350 E27.07344
G1 X87.120 Y102.600 E27.11771
G1 X86.855 Y102.600 E27.12260
G1 X86.036 Y100.350 E27.16687
G1 X84.797 Y100.350 E27.18978
G1 X83.978 Y102.600 E27.23404
G1 X83.713 Y102.600 E27.23894
G1 X82.894 Y100.350 E27.28321
G1 X81.655 Y100.350 E27.30611
G1 X80.836 Y102.600 E27.35038
G1 X80.572 Y102.600 E27.35528
G1 X79.753 Y100.350 E27.39954
G1 X78.514 Y100.350 E27.42245
G1 X77.695 Y102.600 E27.46672
G1 X77.430 Y102.600 E27.47161
G1 X76.611 Y100.350 E27.51588
G1 X75.372 Y100.350 E27.53879
G1 X74.553 Y102.600 E27.58306
G1 X74.288 Y102.600 E27.58795
G1 X73.485 Y100.394 E27.63136
G1 X73.246 Y100.327 E27.63596
G1 X73.180 Y100.282 E27.63743
G1 X73.132 Y100.218 E27.63890
G1 X73.106 Y100.143 E27.64038
G1 X73.101 Y97.400 E27.69109
G1 X126.900 Y97.400 E28.68575
G1 X126.900 Y100.092 E28.73552
G1 X126.868 Y100.219 E28.73793
G1 X126.819 Y100.282 E28.73941
G1 X126.753 Y100.327 E28.74089
G1 X126.668 Y100.350 E28.74251
G1 X125.638 Y100.350 E28.76157
G1 X124.819 Y102.600 E28.80583
G1 X124.554 Y102.600 E28.81073
G1 X123.761 Y100.420 E28.85361
G1 X123.677 Y99.853 F7800.000
G1 Z1.100 F7800.000
G1 X125.700 Y99.150 F7800.000
G1 X74.304 Y99.150 E30.28129 F3600.000
G1 X74.303 Y98.600 E30.29659
G1 X125.700 Y98.600 E31.72431
G1 X125.700 Y99.075 E31.73753
G1 X125.256 Y99.805 F7800.000
G1 X124.686 Y101.370 E31.78379 F3600.000
G1 X124.117 Y99.805 E31.83006
G1 X122.114 Y99.805 E31.88568
G1 X121.545 Y101.370 E31.93194
G1 X120.975 Y99.805 E31.97821
G1 X118.973 Y99.805 E32.03383
G1 X118.403 Y101.370 E32.08009
G1 X117.833 Y99.805 E32.12636
G1 X115.831 Y99.805 E32.18198
G1 X115.261 Y101.370 E32.22824
G1 X114.692 Y99.805 E32.27451
G1 X112.690 Y99.805 E32.33013
G1 X112.120 Y101.370 E32.37639
G1 X111.550 Y99.805 E32.42266
G1 X109.548 Y99.805 E32.47828
G1 X108.978 Y101.370 E32.52454
G1 X108.409 Y99.805 E32.57081
G1 X106.406 Y99.805 E32.62643
G1 X105.837 Y101.370 E32.67269
G1 X105.267 Y99.805 E32.71896
G1 X103.265 Y99.805 E32.77458
G1 X102.695 Y101.370 E32.82084
G1 X102.125 Y99.805 E32.86711
G1 X100.123 Y99.805 E32.92273
G1 X99.554 Y101.370 E32.96899
G1 X98.984 Y99.805 E33.01526
G1 X96.982 Y99.805 E33.07088
G1 X96.412 Y101.370 E33.11714
G1 X95.842 Y99.805 E33.16341
G1 X93.840 Y99.805 E33.21903
G1 X93.270 Y101.370 E33.26529
G1 X92.701 Y99.805 E33.31156
G1 X90.698 Y99.805 E33.36718
G1 X90.129 Y101.370 E33.41344
G1 X89.559 Y99.805 E33.45971
G1 X87.557 Y99.805 E33.51533
G1 X86.987 Y101.370 E33.56159
G1 X86.418 Y99.805 E33.60786
G1 X84.415 Y99.805 E33.66348
G1 X83.846 Y101.370 E33.70974
G1 X83.276 Y99.805 E33.75601
G1 X81.274 Y99.805 E33.81163
G1 X80.704 Y101.370 E33.85789
G1 X80.134 Y99.805 E33.90416
G1 X78.132 Y99.805 E33.95978
G1 X77.562 Y101.370 E34.00605
G1 X76.993 Y99.805 E34.05231
G1 X74.990 Y99.805 E34.10793
G1 X74.421 Y101.370 E34.15420
G1 X73.902 Y99.945 E34.19633
G1 X73.651 Y99.874 E34.20357
G1 X73.647 Y97.945 E34.25716
G1 X126.355 Y97.945 E35.72128
G1 X126.355 Y99.805 E35.77294
G1 X125.331 Y99.805 E35.80139
G1 X123.735 Y100.350 F7800.000
G1 X122.496 Y100.350 E35.82429 F1800.000
G1 X121.677 Y102.600 E35.86856
G1 X121.412 Y102.600 E35.87345
G1 X120.593 Y100.350 E35.91772
G1 X119.354 Y100.350 E35.94063
G1 X118.535 Y102.600 E35.98490
G1 X118.271 Y102.600 E35.98979
G1 X117.452 Y100.350 E36.03406
G1 X116.213 Y100.350 E36.05697
G1 X115.394 Y102.600 E36.10124
G1 X115.129 Y102.600 E36.10613
G1 X114.310 Y100.350 E36.15040
G1 X113.071 Y100.350 E36.17331
G1 X112.252 Y102.600 E36.21757
G1 X111.988 Y102.600 E36.22247
G1 X111.169 Y100.350 E36.26674
G1 X109.930 Y100.350 E36.28964
G1 X109.111 Y102.600 E36.33391
G1 X108.846 Y102.600 E36.33881
G1 X108.027 Y100.350 E36.38307
G1 X106.788 Y100.350 E36.40598
G1 X105.969 Y102.600 E36.45025
G1 X105.704 Y102.600 E36.45514
G1 X104.885 Y100.350 E36.49941
G1 X103.646 Y100.350 E36.52232
G1 X102.828 Y102.600 E36.56659
G1 X102.563 Y102.600 E36.57148
G1 X101.744 Y100.350 E36.61575
G1 X100.505 Y100.350 E36.63866
G1 X99.686 Y102.600 E36.68293
G1 X99.421 Y102.600 E36.68782
G1 X98.602 Y100.350 E36.73209
G1 X97.363 Y100.350 E36.75500
G1 X96.544 Y102.600 E36.79926
G1 X96.280 Y102.600 E36.80416
G1 X95.461 Y100.350 E36.84843
G1 X94.222 Y100.350 E36.87133
G1 X93.403 Y102.600 E36.91560
G1 X93.138 Y102.600 E36.92050
G1 X92.319 Y100.350 E36.96476
G1 X91.080 Y100.350 E36.98767
G1 X90.261 Y102.600 E37.03194
G1 X89.996 Y102.600 E37.03683
G1 X89.177 Y100.350 E37.08110
G1 X87.938 Y100.350 E37.10401
G1 X87.120 Y102.600 E37.14828
G1 X86.855 Y102.600 E37.15317
G1 X86.036 Y100.350 E37.19744
G1 X84.797 Y100.350 E37.22035
G1 X83.978 Y102.600 E37.26462
G1 X83.713 Y102.600 E37.26951
G1 X82.894 Y100.350 E37.31378
G1 X81.655 Y100.350 E37.33669
G1 X80.836 Y102.600 E37.38095
G1 X80.572 Y102.600 E37.38585
G1 X79.753 Y100.350 E37.43012
G1 X78.514 Y100.350 E37.45302
G1 X77.695 Y102.600 E37.49729
G1 X77.430 Y102.600 E37.50219
G1 X76.611 Y100.350 E37.54645
G1 X75.372 Y100.350 E37.56936
G1 X74.553 Y102.600 E37.61363
G1 X74.288 Y102.600 E37.61852
G1 X73.485 Y100.394 E37.66193
G1 X73.246 Y100.327 E37.66653
G1 X73.180 Y100.282 E37.66800
G1 X73.132 Y100.218 E37.66947
G1 X73.106 Y100.143 E37.67095
G1 X73.101 Y97.400 E37.72166
G1 X126.900 Y97.400 E38.71632
G1 X126.900 Y100.082 E38.76591
G1 X126.883 Y100.183 E38.76780
G1 X126.839 Y100.268 E38.76957
G1 X126.753 Y100.327 E38.77151
G1 X126.668 Y100.350 E38.77313
G1 X125.638 Y100.350 E38.79218
G1 X124.819 Y102.600 E38.83645
G1 X124.554 Y102.600 E38.84134
G1 X123.761 Y100.420 E38.88423
G1 X123.677 Y99.853 F7800.000
M106 S239.7
G1 Z1.400 F7800.000
G1 X125.700 Y99.150 F7800.000
G1 X74.304 Y99.150 E40.31191 F3600.000
G1 X74.303 Y98.600 E40.32721
G1 X125.700 Y98.600 E41.75492
G1 X125.700 Y99.075 E41.76814
G1 X125.256 Y99.805 F7800.000
G1 X124.686 Y101.370 E41.81441 F3600.000
G1 X124.117 Y99.805 E41.86068
G1 X122.114 Y99.805 E41.91629
G1 X121.545 Y101.370 E41.96256
G1 X120.975 Y99.805 E42.00882
G1 X118.973 Y99.805 E42.06444
G1 X118.403 Y101.370 E42.11071
G1 X117.833 Y99.805 E42.15698
G1 X115.831 Y99.805 E42.21259
G1 X115.261 Y101.370 E42.25886
G1 X114.692 Y99.805 E42.30513
G1 X112.690 Y99.805 E42.36074
G1 X112.120 Y101.370 E42.40701
G1 X111.550 Y99.805 E42.45328
G1 X109.548 Y99.805 E42.50889
G1 X108.978 Y101.370 E42.55516
G1 X108.409 Y99.805 E42.60143
G1 X106.406 Y99.805 E42.65704
G1 X105.837 Y101.370 E42.70331
G1 X105.267 Y99.805 E42.74958
G1 X103.265 Y99.805 E42.80519
G1 X102.695 Y101.370 E42.85146
G1 X102.125 Y99.805 E42.89773
G1 X100.123 Y99.805 E42.95334
G1 X99.554 Y101.370 E42.99961
G1 X98.984 Y99.805 E43.04588
G1 X96.982 Y99.805 E43.10149
G1 X96.412 Y101.370 E43.14776
G1 X95.842 Y99.805 E43.19403
G1 X93.840 Y99.805 E43.24964
G1 X93.270 Y101.370 E43.29591
G1 X92.701 Y99.805 E43.34218
G1 X90.698 Y99.805 E43.39779
G1 X90.129 Y101.370 E43.44406
G1 X89.559 Y99.805 E43.49033
G1 X87.557 Y99.805 E43.54594
G1 X86.987 Y101.370 E43.59221
G1 X86.418 Y99.805 E43.63848
G1 X84.415 Y99.805 E43.69409
G1 X83.846 Y101.370 E43.74036
G1 X83.276 Y99.805 E43.78663
G1 X81.274 Y99.805 E43.84224
G1 X80.704 Y101.370 E43.88851
G1 X80.134 Y99.805 E43.93478
G1 X78.132 Y99.805 E43.99039
G1 X77.562 Y101.370 E44.03666
G1 X76.993 Y99.805 E44.08293
G1 X74.990 Y99.805 E44.13854
G1 X74.421 Y101.370 E44.18481
G1 X73.902 Y99.945 E44.22694
G1 X73.651 Y99.874 E44.23419
G1 X73.647 Y97.945 E44.28778
G1 X126.355 Y97.945 E45.75189
G1 X126.355 Y99.805 E45.80356
G1 X125.331 Y99.805 E45.83200
G1 X123.735 Y100.350 F7800.000
G1 X122.496 Y100.350 E45.85491 F1800.000
G1 X121.677 Y102.600 E45.89918
G1 X121.412 Y102.600 E45.90407
G1 X120.593 Y100.350 E45.94834
G1 X119.354 Y100.350 E45.97124
G1 X118.535 Y102.600 E46.01551
G1 X118.271 Y102.600 E46.02041
G1 X117.452 Y100.350 E46.06468
G1 X116.213 Y100.350 E46.08758
G1 X115.394 Y102.600 E46.13185
G1 X115.129 Y102.600 E46.13675
G1 X114.310 Y100.350 E46.18101
G1 X113.071 Y100.350 E46.20392
G1 X112.252 Y102.600 E46.24819
G1 X111.988 Y102.600 E46.25308
G1 X111.169 Y100.350 E46.29735
G1 X109.930 Y100.350 E46.32026
G1 X109.111 Y102.600 E46.36453
G1 X108.846 Y102.600 E46.36942
G1 X108.027 Y100.350 E46.41369
G1 X106.788 Y100.350 E46.43660
G1 X105.969 Y102.600 E46.48086
G1 X105.704 Y102.600 E46.48576
G1 X104.885 Y100.350 E46.53003
G1 X103.646 Y100.350 E46.55293
G1 X102.828 Y102.600 E46.59720
G1 X102.563 Y102.600 E46.60210
G1 X101.744 Y100.350 E46.64637
G1 X100.505 Y100.350 E46.66927
G1 X99.686 Y102.600 E46.71354
G1 X99.421 Y102.600 E46.71844
G1 X98.602 Y100.350 E46.76270
G1 X97.363 Y100.350 E46.78561
G1 X96.544 Y102.600 E46.82988
G1 X96.280 Y102.600 E46.83477
G1 X95.461 Y100.350 E46.87904
G1 X94.222 Y100.350 E46.90195
G1 X93.403 Y102.600 E46.94622
G1 X93.138 Y102.600 E46.95111
G1 X92.319 Y100.350 E46.99538
G1 X91.080 Y100.350 E47.01829
G1 X90.261 Y102.600 E47.06255
G1 X89.996 Y102.600 E47.06745
G1 X89.177 Y100.350 E47.11172
G1 X87.938 Y100.350 E47.13462
G1 X87.120 Y102.600 E47.17889
G1 X86.855 Y102.600 E47.18379
G1 X86.036 Y100.350 E47.22806
G1 X84.797 Y100.350 E47.25096
G1 X83.978 Y102.600 E47.29523
G1 X83.713 Y102.600 E47.30013
G1 X82.894 Y100.350 E47.34439
G1 X81.655 Y100.350 E47.36730
G1 X80.836 Y102.600 E47.41157
G1 X80.572 Y102.600 E47.41646
G1 X79.753 Y100.350 E47.46073
G1 X78.514 Y100.350 E47.48364
G1 X77.695 Y102.600 E47.52791
G1 X77.430 Y102.600 E47.53280
G1 X76.611 Y100.350 E47.57707
G1 X75.372 Y100.350 E47.59998
G1 X74.553 Y102.600 E47.64424
G1 X74.288 Y102.600 E47.64914
G1 X73.485 Y100.394 E47.69254
