; generated by Slic3r 1.2.9 on 2017-09-13 at 15:24:42

; external perimeters extrusion width = 0.50mm
; perimeters extrusion width = 0.72mm
; infill extrusion width = 0.72mm
; solid infill extrusion width = 0.72mm
; top infill extrusion width = 0.72mm

M107
M104 S200 ; set temperature
G28 ; home all axes
G1 Z5 F5000 ; lift nozzle

M109 S200 ; wait for temperature to be reached
G21 ; set units to millimeters
G90 ; use absolute coordinates
M82 ; use absolute distances for extrusion
G92 E0
G1 Z0.500 F7800.000
G1 E-2.00000 F2400.00000
G92 E0
G1 X61.412 Y86.165 F7800.000
G1 E2.00000 F2400.00000
G1 X63.587 Y85.304 E2.14774 F1800.000
G1 X65.000 Y85.157 E2.23742
G1 X73.000 Y85.157 E2.74259
G1 X73.784 Y85.202 E2.79218
G1 X135.784 Y92.302 E6.73280 F1800.000
G1 X138.030 Y92.959 E6.88054
G1 X139.926 Y94.329 E7.02828
G1 X141.255 Y96.255 E7.17602
G1 X141.893 Y99.150 E7.36322
G1 X141.893 Y107.150 E7.86838
G1 X141.496 Y109.456 E8.01612
G1 X140.350 Y111.496 E8.16386
G1 X138.588 Y113.035 E8.31161
G1 X136.413 Y113.896 E8.45935
G1 X135.089 Y114.042 E8.54344
G1 X73.000 Y114.843 E12.46440
G1 X65.000 Y114.843 E12.96957
G1 X62.694 Y114.446 E13.11731
G1 X60.654 Y113.300 E13.26505
G1 X59.115 Y111.538 E13.41279
G1 X58.254 Y109.363 E13.56053
G1 X58.107 Y107.950 E13.65021
G1 X58.107 Y92.050 E14.65423
G1 X58.504 Y89.744 E14.80197
G1 X59.650 Y87.704 E14.94971
G1 X61.355 Y86.214 E15.09271
G1 E13.09271 F2400.00000
G92 E0
G1 X70.730 Y105.958 F7800.000
G1 E2.00000 F2400.00000
G1 X70.328 Y106.246 E2.03120 F1800.000
G1 X69.907 Y106.442 E2.06054
G1 X69.460 Y106.562 E2.08973
G1 X69.000 Y106.602 E2.11890
G1 X68.547 Y106.563 E2.14766
G1 X68.093 Y106.442 E2.17728
G1 X67.675 Y106.247 E2.20644
G1 X67.314 Y105.996 E2.23415
G1 X66.988 Y105.676 E2.26301
G1 X66.704 Y105.278 E2.29392
G1 X66.508 Y104.857 E2.32323
G1 X66.388 Y104.410 E2.35242
G1 X66.348 Y103.950 E2.38161
G1 X66.388 Y103.490 E2.41080
G1 X66.508 Y103.043 E2.43998
G1 X66.702 Y102.626 E2.46904
G1 X66.988 Y102.224 E2.50020
G1 X67.315 Y101.903 E2.52915
G1 X67.695 Y101.642 E2.55823
G1 X68.146 Y101.442 E2.58943
G1 X68.539 Y101.339 E2.61508
G1 X68.951 Y101.300 E2.64121 F1800.000
G1 X69.450 Y101.336 E2.67279
G1 X69.907 Y101.458 E2.70262
G1 X70.327 Y101.654 E2.73187
G1 X70.704 Y101.920 E2.76105
G1 X71.030 Y102.245 E2.79016
G1 X71.296 Y102.623 E2.81932
G1 X71.482 Y103.019 E2.84695
G1 X71.611 Y103.487 E2.87762
G1 X71.652 Y103.950 E2.90694
G1 X71.611 Y104.413 E2.93626
G1 X71.481 Y104.883 E2.96710
G1 X71.278 Y105.304 E2.99656
G1 X71.043 Y105.639 E3.02244
G1 X70.783 Y105.905 E3.04594
G1 X70.806 Y106.446 F7800.000
G1 X71.971 Y102.898 F7800.000
G1 X72.260 Y101.749 F7800.000
G1 X72.021 Y101.133 F7800.000
G1 X71.678 Y100.957 F7800.000
G1 X71.527 Y100.853 F7800.000
G1 X71.441 Y100.787 F7800.000
G1 X71.607 Y100.543 F7800.000
G1 X72.741 Y100.543 E3.11755 F1800.000
G1 X72.616 Y100.978 E3.14617
G1 X72.605 Y101.356 E3.17006
G1 X72.658 Y101.731 E3.19393
G1 X72.880 Y102.267 E3.23055
G1 X73.107 Y102.521 E3.25211
G1 X73.107 Y103.777 E3.33141
G1 X72.587 Y104.396 E3.38247
G1 X72.494 Y103.328 E3.45016
G1 X72.322 Y102.709 E3.49075
G1 X72.071 Y102.173 E3.52808
G1 X71.716 Y101.669 E3.56705
G1 X71.281 Y101.234 E3.60590
G1 X70.776 Y100.878 E3.64493
G1 X70.212 Y100.615 E3.68416
G1 X69.599 Y100.452 E3.72427
G1 X68.942 Y100.404 E3.76584
G1 X68.384 Y100.457 E3.80125
G1 X67.851 Y100.596 E3.83604
G1 X67.257 Y100.859 E3.87703
G1 X66.393 Y101.454 E3.94329
G1 X66.393 Y98.543 E4.12710
G1 X67.228 Y99.124 E4.19135
G1 X67.787 Y99.385 E4.23032
G1 X68.392 Y99.546 E4.26984
G1 X69.001 Y99.598 E4.30842
G1 X69.616 Y99.544 E4.34741
G1 X70.213 Y99.384 E4.38646
G1 X70.780 Y99.120 E4.42596
G1 X71.607 Y98.528 E4.49015
G1 X71.607 Y100.468 E4.61261
G1 X70.328 Y98.346 F7800.000
G1 X69.907 Y98.542 E4.64196 F1800.000
G1 X69.460 Y98.662 E4.67115
G1 X69.000 Y98.702 E4.70032
G1 X68.547 Y98.663 E4.72908
G1 X68.093 Y98.542 E4.75869
G1 X67.675 Y98.347 E4.78785
G1 X67.314 Y98.096 E4.81557
G1 X66.988 Y97.776 E4.84443
G1 X66.704 Y97.378 E4.87534
G1 X66.508 Y96.957 E4.90465
G1 X66.388 Y96.510 E4.93384
G1 X66.348 Y96.050 E4.96303
G1 X66.388 Y95.590 E4.99222
G1 X66.508 Y95.143 E5.02140
G1 X66.702 Y94.726 E5.05046
G1 X66.988 Y94.324 E5.08161
G1 X67.315 Y94.003 E5.11057
G1 X67.695 Y93.742 E5.13965
G1 X68.146 Y93.542 E5.17085
G1 X68.539 Y93.439 E5.19650
G1 X68.951 Y93.400 E5.22262 F1800.000
G1 X69.450 Y93.436 E5.25421
G1 X69.907 Y93.558 E5.28403
G1 X70.327 Y93.754 E5.31329
G1 X70.704 Y94.020 E5.34246
G1 X71.030 Y94.345 E5.37157
G1 X71.296 Y94.723 E5.40073
G1 X71.482 Y95.119 E5.42837
G1 X71.611 Y95.587 E5.45904
G1 X71.652 Y96.050 E5.48836
G1 X71.611 Y96.513 E5.51767
G1 X71.481 Y96.983 E5.54852
G1 X71.278 Y97.404 E5.57798
G1 X71.043 Y97.739 E5.60386
G1 X70.730 Y98.058 E5.63209
G1 X70.389 Y98.302 E5.65855
G1 X70.316 Y98.810 F7800.000
G1 X73.505 Y101.117 F7800.000
G1 X73.593 Y100.813 E5.67851 F1800.000
G1 X73.788 Y100.538 E5.69982
G1 X74.063 Y100.343 E5.72112
G1 X74.387 Y100.249 E5.74242
G1 X74.703 Y100.267 E5.76237
G1 X74.904 Y100.331 E5.77569
G1 X75.172 Y100.500 E5.79571
G1 X75.370 Y100.750 E5.81587
G1 X128.643 Y100.750 E9.17980
G1 X128.728 Y100.602 E9.19057
G1 X128.979 Y100.392 E9.21126
G1 X129.176 Y100.300 E9.22502
G1 X129.489 Y100.243 E9.24508
G1 X129.842 Y100.302 E9.26769
G1 X130.128 Y100.467 E9.28854
G1 X130.282 Y100.621 E9.30230
G1 X130.442 Y100.895 E9.32236
G1 X130.508 Y101.247 E9.34497
G1 X130.447 Y101.595 E9.36724
G1 X130.283 Y101.878 E9.38793
G1 X130.129 Y102.032 E9.40168
G1 X130.000 Y102.108 E9.41111
G1 X130.000 Y104.174 E9.54160
G1 X130.271 Y104.402 E9.56396
G1 X130.431 Y104.676 E9.58397
G1 X130.492 Y104.894 E9.59830
G1 X130.492 Y105.225 E9.61921
G1 X130.373 Y105.554 E9.64131
G1 X130.148 Y105.822 E9.66341
G1 X129.845 Y105.997 E9.68550
G1 X129.500 Y106.058 E9.70760
G1 X129.177 Y106.001 E9.72829
G1 X128.980 Y105.909 E9.74205
G1 X128.736 Y105.705 E9.76211
G1 X128.644 Y105.550 E9.77352
G1 X75.375 Y105.550 E13.13718
G1 X75.150 Y105.821 E13.15944
G1 X74.845 Y105.997 E13.18167
G1 X74.500 Y106.058 E13.20378
G1 X74.155 Y105.997 E13.22588
G1 X73.852 Y105.822 E13.24796
G1 X73.627 Y105.554 E13.27006
G1 X73.515 Y105.246 E13.29077
G1 X73.498 Y105.050 E13.30319
G1 X73.515 Y104.854 E13.31562
G1 X73.627 Y104.546 E13.33632
G1 X73.852 Y104.278 E13.35842
G1 X74.000 Y104.193 E13.36918
G1 X74.000 Y102.108 E13.50081
G1 X73.872 Y102.037 E13.51005
G1 X73.647 Y101.785 E13.53141
G1 X73.526 Y101.494 E13.55131
G1 X73.503 Y101.192 E13.57046
G1 X73.262 Y100.915 F7800.000
G1 E11.57046 F2400.00000
G92 E0
G1 X128.381 Y100.250 F7800.000
G1 X132.464 Y101.909 F7800.000
G1 X132.226 Y101.789 F7800.000
G1 E2.00000 F2400.00000
G1 X132.715 Y101.832 E2.03099 F1800.000
G1 X132.715 Y104.493 E2.19905
G1 X132.252 Y104.557 E2.22851
G1 X132.087 Y103.973 E2.26685
G1 X131.785 Y103.454 E2.30475
G1 X131.785 Y102.847 E2.34306
G1 X132.151 Y102.215 E2.38918
G1 X132.213 Y101.863 E2.41176
G1 X131.285 Y100.543 F7800.000
G1 X133.607 Y100.543 E2.55843 F1800.000
G1 X133.607 Y105.757 E2.88771
G1 X131.249 Y105.757 E3.03665
G1 X131.385 Y105.382 E3.06184
G1 X131.385 Y104.770 E3.10049
G1 X131.259 Y104.324 E3.12977
G1 X130.964 Y103.818 E3.16676
G1 X130.893 Y103.758 E3.17266
G1 X130.893 Y102.531 E3.25011
G1 X130.997 Y102.427 E3.25946
G1 X131.299 Y101.905 E3.29751
G1 X131.415 Y101.243 E3.33996
G1 X131.298 Y100.616 E3.38019
G1 X72.500 Y99.650 F7800.000
G1 X134.500 Y99.650 E7.29522 F1800.000
G1 X134.500 Y106.650 E7.73724
G1 X72.500 Y106.650 E11.65226
G1 X72.500 Y107.450 E11.70278
G1 X65.500 Y107.450 E12.14479
G1 X65.500 Y92.550 E13.08566
G1 X72.500 Y92.550 E13.52768
G1 X72.500 Y99.575 E13.97128
G1 X72.500 Y100.150 F7800.000
G1 X75.445 Y100.118 F7800.000
G1 X75.636 Y100.200 E13.98445 F1800.000
G1 X128.513 Y100.200 E17.32338
G1 E15.32338 F2400.00000
G92 E0
G1 X130.500 Y103.931 F7800.000
G1 X130.500 Y103.931 F7800.000
G1 X128.512 Y106.100 F7800.000
G1 E2.00000 F2400.00000
G1 X75.498 Y106.100 E5.34761 F1800.000
G1 X73.481 Y106.150 F7800.000
G1 X72.976 Y105.905 F7800.000
G1 X72.426 Y105.523 F7800.000
G1 X72.431 Y105.469 F7800.000
G1 X73.019 Y105.311 F7800.000
G1 X73.164 Y104.442 F7800.000
G1 X72.998 Y104.728 E5.36847 F1800.000
G1 X72.870 Y105.034 E5.38941
G1 X72.762 Y105.371 E5.41173
G1 X72.694 Y105.718 E5.43404
G1 X72.428 Y105.829 E5.45226
G1 X72.145 Y105.515 E5.47894
G1 X72.133 Y105.248 E5.49586
G1 X72.093 Y105.144 E5.50285
G1 X72.045 Y105.094 E5.50726
G1 X72.100 Y104.505 E5.54459
G1 X72.100 Y104.264 E5.55980
G1 X72.191 Y104.986 F7800.000
G1 X71.970 Y105.166 E5.57775 F1800.000
G1 X71.698 Y105.553 E5.60764
G1 X71.388 Y105.926 E5.63824
G1 X71.021 Y106.299 F7800.000
G1 X70.583 Y106.673 E5.67463 F1800.000
G1 X70.280 Y106.888 E5.69808
G1 X69.734 Y106.978 E5.73307
G1 X67.310 Y106.793 F7800.000
G1 X66.821 Y106.640 E5.80170 F1800.000
G1 X66.456 Y106.494 E5.85436
G1 X66.333 Y106.192 E5.89808
G1 X66.155 Y105.636 E5.97620
G1 X66.155 Y94.365 F7800.000
G1 X66.332 Y93.809 E6.05426 F1800.000
G1 X66.456 Y93.506 E6.09809
G1 X66.825 Y93.359 E6.15129
G1 X67.312 Y93.207 E6.21951
G1 X70.688 Y93.206 F7800.000
G1 X71.208 Y93.371 E6.29261 F1800.000
G1 X71.544 Y93.506 E6.34108
G1 X71.679 Y93.842 E6.38953
G1 X71.844 Y94.362 E6.46262
G1 Z0.800 F7800.000
G1 X70.540 Y102.112 F7800.000
G1 X70.792 Y102.354 E6.46908 F900.000
G1 X71.033 Y102.678 E6.47654
G1 X71.231 Y103.067 E6.48461
G1 X71.364 Y103.531 E6.49353
G1 X71.401 Y103.950 E6.50131
G1 X71.364 Y104.368 E6.50907
G1 X71.242 Y104.807 E6.51749
G1 X71.035 Y105.218 E6.52601
G1 X70.869 Y105.456 E6.53136
G1 X70.605 Y105.733 E6.53844
G1 X70.203 Y106.028 E6.54766
G1 X69.821 Y106.206 E6.55545
G1 X69.417 Y106.314 E6.56319
G1 X69.000 Y106.351 E6.57091
G1 X68.600 Y106.317 E6.57834
G1 X68.179 Y106.206 E6.58639
G1 X67.801 Y106.030 E6.59411
G1 X67.503 Y105.826 E6.60079
G1 X67.208 Y105.546 E6.60831
G1 X66.922 Y105.153 E6.61729
G1 X66.749 Y104.783 E6.62483
G1 X66.636 Y104.367 E6.63281
G1 X66.599 Y103.950 E6.64055
G1 X66.636 Y103.533 E6.64830
G1 X66.748 Y103.117 E6.65626
G1 X66.917 Y102.756 E6.66362
G1 X67.208 Y102.355 E6.67279
G1 X67.504 Y102.073 E6.68034
G1 X67.845 Y101.845 E6.68793
G1 X68.310 Y101.653 E6.69722
G1 X68.583 Y101.586 E6.70243
G1 X68.880 Y101.554 E6.70796 F900.000
G1 X69.395 Y101.582 E6.71749
G1 X69.789 Y101.683 E6.72501
G1 X70.200 Y101.870 E6.73337
G1 X70.479 Y102.068 E6.73969
G1 X70.871 Y101.999 F7800.000
G1 E4.73969 F2400.00000
G92 E0
G1 X71.121 Y106.277 F7800.000
G1 X70.676 Y106.797 F7800.000
G1 X70.313 Y106.882 F7800.000
G1 X70.095 Y106.928 F7800.000
G1 X70.093 Y106.929 F7800.000
G1 X69.952 Y106.950 F7800.000
G1 X68.341 Y106.813 F7800.000
G1 E2.00000 F2400.00000
G1 X68.297 Y107.155 E2.00959 F900.000
G1 X65.795 Y107.155 E2.07908
G1 X65.795 Y104.653 E2.14859
G1 X66.136 Y104.607 E2.15814
G1 X66.235 Y104.972 E2.16864
G1 X66.451 Y105.432 E2.18274
G1 X66.797 Y105.907 E2.19906
G1 X67.159 Y106.251 E2.21295
G1 X67.530 Y106.505 E2.22543
G1 X67.993 Y106.721 E2.23964
G1 X68.269 Y106.794 E2.24755
G1 E0.24755 F2400.00000
G92 E0
G1 X71.973 Y102.907 F7800.000
G1 X72.282 Y101.790 F7800.000
G1 X72.101 Y101.347 F7800.000
G1 X71.951 Y101.103 F7800.000
G1 X71.625 Y100.923 F7800.000
G1 X71.500 Y100.833 F7800.000
G1 X71.416 Y100.765 F7800.000
G1 X71.550 Y100.600 F7800.000
G1 E2.00000 F2400.00000
G1 X72.618 Y100.600 E2.02967 F900.000
G1 X72.533 Y101.360 E2.05094
G1 X72.680 Y102.004 E2.06927
G1 X72.998 Y102.510 E2.08588
G1 X73.050 Y102.560 E2.08790
G1 X73.050 Y103.731 E2.12043
G1 X72.989 Y103.782 E2.12264
G1 X72.882 Y103.968 E2.12859
G1 X72.601 Y103.906 E2.13659
G1 X72.549 Y103.310 E2.15320
G1 X72.352 Y102.626 E2.17298
G1 X72.056 Y102.044 E2.19111
G1 X71.695 Y101.559 E2.20790
G1 X71.308 Y101.186 E2.22283
G1 X70.802 Y100.827 E2.24007
G1 X70.191 Y100.547 E2.25875
G1 X69.578 Y100.390 E2.27632
G1 X68.848 Y100.351 E2.29662
G1 X68.374 Y100.402 E2.30986
G1 X67.935 Y100.510 E2.32243
G1 X67.277 Y100.782 E2.34219
G1 X66.450 Y101.335 E2.36985
G1 X66.450 Y98.658 E2.44422
G1 X67.204 Y99.175 E2.46963
G1 X67.770 Y99.439 E2.48696
G1 X68.396 Y99.604 E2.50495
G1 X69.003 Y99.655 E2.52187
G1 X69.626 Y99.600 E2.53925
G1 X70.233 Y99.438 E2.55670
G1 X70.818 Y99.165 E2.57463
G1 X71.550 Y98.626 E2.59988
G1 X71.550 Y100.525 E2.65261
G1 X72.205 Y99.945 F7800.000
G1 X73.989 Y99.945 E2.70217 F3600.000
G1 X73.452 Y100.474 E2.72310
G1 X73.246 Y100.880 E2.73576
G1 X73.196 Y101.323 E2.74815
G1 X73.293 Y101.750 E2.76031
G1 X73.508 Y102.092 E2.77152
G1 X73.705 Y102.278 E2.77906
G1 X73.705 Y104.036 E2.82790
G1 X73.499 Y104.210 E2.83539
G1 X73.270 Y104.606 E2.84810
G1 X73.198 Y105.032 E2.86010
G1 X73.228 Y105.324 E2.86824
G1 X73.363 Y105.693 E2.87917
G1 X73.908 Y106.355 E2.90298
G1 X72.205 Y106.355 E2.95029
G1 X72.205 Y107.155 E2.97251
G1 X69.705 Y107.155 E3.04194
G1 X69.660 Y106.814 E3.05151
G1 X70.008 Y106.720 E3.06151
G1 X70.482 Y106.499 E3.07604
G1 X70.966 Y106.143 E3.09272
G1 X71.292 Y105.802 E3.10583
G1 X71.504 Y105.499 E3.11611
G1 X71.753 Y105.005 E3.13147
G1 X71.903 Y104.466 E3.14701
G1 X71.948 Y103.950 E3.16140
G1 X71.903 Y103.430 E3.17589
G1 X71.740 Y102.867 E3.19218
G1 X71.498 Y102.390 E3.20703
G1 X71.202 Y101.993 E3.22078
G1 X70.889 Y101.691 E3.23286
G1 X70.474 Y101.396 E3.24701
G1 X69.972 Y101.167 E3.26235
G1 X69.478 Y101.040 E3.27650
G1 X68.866 Y101.007 E3.29354
G1 X68.488 Y101.048 E3.30409
G1 X68.139 Y101.134 E3.31406
G1 X67.587 Y101.362 E3.33066
G1 X67.162 Y101.646 E3.34485
G1 X66.796 Y101.994 E3.35890
G1 X66.445 Y102.479 E3.37552
G1 X66.235 Y102.929 E3.38931
G1 X66.136 Y103.293 E3.39979
G1 X65.795 Y103.247 E3.40935
G1 X65.795 Y96.753 E3.58976
G1 X66.136 Y96.707 E3.59931
G1 X66.235 Y97.072 E3.60981
G1 X66.451 Y97.532 E3.62391
G1 X66.797 Y98.007 E3.64023
G1 X67.159 Y98.351 E3.65412
G1 X67.530 Y98.605 E3.66660
G1 X67.993 Y98.821 E3.68081
G1 X68.508 Y98.957 E3.69558
G1 X69.002 Y98.998 E3.70935
G1 X69.512 Y98.953 E3.72359
G1 X70.008 Y98.820 E3.73786
G1 X70.482 Y98.599 E3.75239
G1 X70.966 Y98.243 E3.76908
G1 X71.292 Y97.902 E3.78218
G1 X71.504 Y97.599 E3.79246
G1 X71.752 Y97.107 E3.80777
G1 X71.866 Y96.704 E3.81940
G1 X72.205 Y96.751 E3.82890
G1 X72.205 Y99.870 E3.91554
G1 X71.867 Y95.408 F7800.000
G1 X71.740 Y94.967 E3.92830 F900.000
G1 X71.498 Y94.490 E3.94315
G1 X71.202 Y94.093 E3.95690
G1 X70.889 Y93.791 E3.96897
G1 X70.474 Y93.496 E3.98313
G1 X69.972 Y93.267 E3.99847
G1 X69.667 Y93.189 E4.00720
G1 X69.710 Y92.845 E4.01682
G1 X72.205 Y92.845 E4.08611
G1 X72.205 Y95.360 E4.15598
G1 X71.942 Y95.397 E4.16337
G1 X71.344 Y95.559 F7800.000
G1 X71.401 Y96.050 E4.17250 F900.000
G1 X71.363 Y96.480 E4.18048
G1 X71.242 Y96.908 E4.18870
G1 X71.035 Y97.318 E4.19720
G1 X70.869 Y97.556 E4.20256
G1 X70.605 Y97.833 E4.20964
G1 X70.203 Y98.128 E4.21885
G1 X69.821 Y98.306 E4.22664
G1 X69.417 Y98.414 E4.23438
G1 X69.000 Y98.451 E4.24211
G1 X68.600 Y98.417 E4.24953
G1 X68.179 Y98.306 E4.25759
G1 X67.801 Y98.130 E4.26531
G1 X67.503 Y97.926 E4.27198
G1 X67.208 Y97.645 E4.27951
G1 X66.922 Y97.253 E4.28849
G1 X66.749 Y96.883 E4.29603
G1 X66.636 Y96.467 E4.30400
G1 X66.599 Y96.050 E4.31175
G1 X66.636 Y95.633 E4.31949
G1 X66.748 Y95.217 E4.32746
G1 X66.917 Y94.856 E4.33482
G1 X67.208 Y94.455 E4.34398
G1 X67.504 Y94.173 E4.35154
G1 X67.845 Y93.945 E4.35913
G1 X68.310 Y93.753 E4.36842
G1 X68.583 Y93.686 E4.37363
G1 X68.880 Y93.654 E4.37915 F900.000
G1 X69.395 Y93.682 E4.38868
G1 X69.789 Y93.783 E4.39621
G1 X70.200 Y93.970 E4.40456
G1 X70.540 Y94.212 E4.41227
G1 X70.792 Y94.454 E4.41873
G1 X71.033 Y94.778 E4.42620
G1 X71.231 Y95.167 E4.43427
G1 X71.323 Y95.487 E4.44042
G1 X71.807 Y95.730 F7800.000
G1 X70.296 Y93.188 F7800.000
G1 X70.124 Y93.077 F7800.000
G1 X70.015 Y93.059 F7800.000
G1 X70.015 Y93.059 F7800.000
G1 X69.954 Y93.050 F7800.000
G1 X68.316 Y93.190 F7800.000
G1 X68.139 Y93.234 E4.44547 F900.000
G1 X67.587 Y93.462 E4.46207
G1 X67.162 Y93.746 E4.47626
G1 X66.796 Y94.094 E4.49031
G1 X66.445 Y94.579 E4.50693
G1 X66.235 Y95.029 E4.52073
G1 X66.136 Y95.393 E4.53121
G1 X65.795 Y95.347 E4.54076
G1 X65.795 Y92.845 E4.61027
G1 X68.274 Y92.845 E4.67913
G1 X68.307 Y93.116 E4.68671
G1 E2.68671 F2400.00000
G92 E0
G1 X71.822 Y97.434 F7800.000
G1 X71.677 Y100.958 F7800.000
G1 X72.655 Y100.605 F7800.000
G1 X73.080 Y100.338 F7800.000
G1 X73.266 Y100.244 F7800.000
