; generated by Slic3r 1.2.9 on 2017-09-13 at 15:26:47

; external perimeters extrusion width = 0.50mm
; perimeters extrusion width = 0.72mm
; infill extrusion width = 0.72mm
; solid infill extrusion width = 0.72mm
; top infill extrusion width = 0.72mm

M107
M104 S200 ; set temperature
G28 ; home all axes
G1 Z5 F5000 ; lift nozzle

M109 S200 ; wait for temperature to be reached
G21 ; set units to millimeters
G90 ; use absolute coordinates
M82 ; use absolute distances for extrusion
G92 E0
G1 Z0.500 F7800.000
G1 E-2.00000 F2400.00000
G92 E0
G1 X23.074 Y42.302 F7800.000
G1 E2.00000 F2400.00000
G1 X25.249 Y41.441 E2.14774 F1800.000
G1 X26.662 Y41.294 E2.23742
G1 X34.662 Y41.294 E2.74259
G1 X35.167 Y41.313 E2.77449
G1 X165.115 Y50.858 E11.00224 F1800.000
G1 X167.385 Y51.423 E11.14998
G1 X169.336 Y52.715 E11.29773
G1 X170.742 Y54.585 E11.44547
G1 X171.466 Y57.019 E11.60585
G1 X180.144 Y140.518 E16.90679
G1 X180.205 Y141.212 E16.95082
G1 X180.205 Y142.414 E17.02670
G1 X180.144 Y143.110 E17.07082
G1 X179.935 Y144.292 E17.14659
G1 X179.758 Y144.953 E17.18983
G1 X179.344 Y146.094 E17.26648
G1 X179.048 Y146.727 E17.31060
G1 X178.448 Y147.766 E17.38638
G1 X178.048 Y148.338 E17.43046
G1 X177.276 Y149.258 E17.50627
G1 X176.782 Y149.752 E17.55040
G1 X175.863 Y150.523 E17.62617
G1 X175.292 Y150.923 E17.67020
G1 X174.251 Y151.524 E17.74607
G1 X173.619 Y151.819 E17.79010
G1 X172.490 Y152.230 E17.86596
G1 X171.816 Y152.410 E17.91005
G1 X171.195 Y152.546 E17.95020
G1 X136.021 Y158.561 E20.20351
G1 X134.938 Y158.680 E20.27232
G1 X134.338 Y158.706 E20.31021
G1 X108.338 Y158.706 E21.95200
G1 X107.737 Y158.679 E21.98997
G1 X106.678 Y158.565 E22.05726
G1 X47.409 Y148.630 E25.85206
G1 X46.434 Y148.386 E25.91554
G1 X43.779 Y147.511 E26.09202
G1 X42.806 Y147.106 E26.15860
G1 X42.298 Y146.847 E26.19460
G1 X41.926 Y146.648 E26.22120
G1 X41.237 Y146.204 E26.27297
G1 X38.983 Y144.552 E26.44945
G1 X38.182 Y143.866 E26.51603
G1 X37.488 Y143.159 E26.57862
G1 X36.970 Y142.523 E26.63040
G1 X35.336 Y140.255 E26.80689
G1 X34.787 Y139.355 E26.87347
G1 X34.528 Y138.847 E26.90947
G1 X34.345 Y138.468 E26.93607
G1 X34.048 Y137.703 E26.98784
G1 X33.195 Y135.042 E27.16432
G1 X32.988 Y134.226 E27.21749
G1 X19.891 Y65.375 E31.64308
G1 X19.769 Y64.087 E31.72478
G1 X19.769 Y48.187 E32.72879
G1 X20.166 Y45.881 E32.87653
G1 X21.312 Y43.841 E33.02427
G1 X23.017 Y42.351 E33.16728
G1 E31.16728 F2400.00000
G92 E0
G1 X111.707 Y59.789 F7800.000
G1 E2.00000 F2400.00000
G1 X111.706 Y59.125 E2.04197 F1800.000
G1 X163.217 Y59.125 E5.29469
G1 X163.217 Y59.789 E5.33666
G1 X111.782 Y59.789 E8.58456
G1 X112.657 Y60.682 F7800.000
G1 X111.881 Y62.815 E8.72788 F1800.000
G1 X111.137 Y60.770 E8.86529
G1 X110.816 Y60.680 E8.88628
G1 X110.811 Y58.232 E9.04087
G1 X164.110 Y58.232 E12.40646
G1 X164.110 Y60.682 E12.56117
G1 X162.923 Y60.682 E12.63615
G1 X162.146 Y62.815 E12.77946
G1 X161.370 Y60.682 E12.92278
G1 X159.781 Y60.682 E13.02313
G1 X159.005 Y62.815 E13.16644
G1 X158.229 Y60.682 E13.30976
G1 X156.639 Y60.682 E13.41010
G1 X155.863 Y62.815 E13.55342
G1 X155.087 Y60.682 E13.69673
G1 X153.498 Y60.682 E13.79708
G1 X152.722 Y62.815 E13.94039
G1 X151.945 Y60.682 E14.08371
G1 X150.356 Y60.682 E14.18405
G1 X149.580 Y62.815 E14.32737
G1 X148.804 Y60.682 E14.47069
G1 X147.215 Y60.682 E14.57103
G1 X146.438 Y62.815 E14.71435
G1 X145.662 Y60.682 E14.85766
G1 X144.073 Y60.682 E14.95801
G1 X143.297 Y62.815 E15.10132
G1 X142.521 Y60.682 E15.24464
G1 X140.931 Y60.682 E15.34498
G1 X140.155 Y62.815 E15.48830
G1 X139.379 Y60.682 E15.63162
G1 X137.790 Y60.682 E15.73196
G1 X137.014 Y62.815 E15.87528
G1 X136.237 Y60.682 E16.01859
G1 X134.648 Y60.682 E16.11894
G1 X133.872 Y62.815 E16.26225
G1 X133.096 Y60.682 E16.40557
G1 X131.507 Y60.682 E16.50591
G1 X130.730 Y62.815 E16.64923
G1 X129.954 Y60.682 E16.79255
G1 X128.365 Y60.682 E16.89289
G1 X127.589 Y62.815 E17.03621
G1 X126.813 Y60.682 E17.17952
G1 X125.224 Y60.682 E17.27987
G1 X124.447 Y62.815 E17.42318
G1 X123.671 Y60.682 E17.56650
G1 X122.082 Y60.682 E17.66684
G1 X121.306 Y62.815 E17.81016
G1 X120.529 Y60.682 E17.95348
G1 X118.940 Y60.682 E18.05382
G1 X118.164 Y62.815 E18.19714
G1 X117.388 Y60.682 E18.34045
G1 X115.799 Y60.682 E18.44080
G1 X115.023 Y62.815 E18.58411
G1 X114.246 Y60.682 E18.72743
G1 X112.732 Y60.682 E18.82304
G1 X112.171 Y60.567 F7800.000
G1 Z0.500 F7800.000
G1 E16.82304 F2400.00000
G92 E0
G1 X111.285 Y64.432 F7800.000
G1 X104.028 Y70.119 F7800.000
G1 X97.174 Y71.151 F7800.000
G1 X96.076 Y71.065 F7800.000
G1 X94.935 Y77.737 F7800.000
G1 X97.963 Y92.355 F7800.000
G1 E2.00000 F2400.00000
G1 X98.231 Y92.531 E2.02025 F1800.000
G1 X98.417 Y92.716 E2.03678
G1 X98.567 Y92.930 E2.05331
G1 X98.677 Y93.167 E2.06984
G1 X98.745 Y93.420 E2.08637
G1 X98.768 Y93.681 E2.10291
G1 X98.745 Y93.942 E2.11944
G1 X98.677 Y94.195 E2.13597
G1 X98.576 Y94.413 E2.15115
G1 X98.419 Y94.644 E2.16877
G1 X98.231 Y94.832 E2.18555
G1 X98.017 Y94.982 E2.20208
G1 X97.780 Y95.092 E2.21861
G1 X97.527 Y95.160 E2.23514
G1 X97.266 Y95.183 E2.25168
G1 X97.005 Y95.160 E2.26821
G1 X96.752 Y95.092 E2.28474
G1 X96.515 Y94.982 E2.30127
G1 X96.301 Y94.832 E2.31780
G1 X96.116 Y94.646 E2.33433
G1 X95.965 Y94.432 E2.35086
G1 X95.864 Y94.214 E2.36604
G1 X95.787 Y93.946 E2.38366
G1 X95.764 Y93.681 E2.40044
G1 X95.787 Y93.420 E2.41698
G1 X95.855 Y93.167 E2.43351
G1 X95.965 Y92.930 E2.45004
G1 X96.116 Y92.716 E2.46657
G1 X96.301 Y92.531 E2.48310
G1 X96.515 Y92.380 E2.49963
G1 X96.752 Y92.270 E2.51616
G1 X97.005 Y92.202 E2.53270
G1 X97.245 Y92.181 E2.54788 F1800.000
G1 X97.523 Y92.201 E2.56549
G1 X97.780 Y92.270 E2.58228
G1 X97.895 Y92.323 E2.59031
G1 X98.242 Y92.197 F7800.000
G1 X100.284 Y92.387 F7800.000
G1 X100.119 Y92.034 E2.61493 F1800.000
G1 X99.790 Y91.564 E2.65118
G1 X99.383 Y91.158 E2.68744
G1 X98.913 Y90.828 E2.72370
G1 X98.393 Y90.586 E2.75996
G1 X97.820 Y90.432 E2.79737
G1 X97.231 Y90.390 E2.83471
G1 X96.694 Y90.437 E2.86872
G1 X96.139 Y90.586 E2.90498
G1 X95.619 Y90.828 E2.94124
G1 X95.149 Y91.158 E2.97750
G1 X94.743 Y91.564 E3.01376
G1 X94.413 Y92.034 E3.05001
G1 X94.171 Y92.554 E3.08627
G1 X94.022 Y93.109 E3.12253
G1 X93.972 Y93.681 E3.15879
G1 X94.024 Y94.271 E3.19620
G1 X94.186 Y94.840 E3.23355
G1 X94.413 Y95.328 E3.26755
G1 X94.743 Y95.798 E3.30381
G1 X95.149 Y96.205 E3.34007
G1 X95.619 Y96.534 E3.37633
G1 X96.139 Y96.777 E3.41259
G1 X96.694 Y96.925 E3.44884
G1 X97.266 Y96.975 E3.48510
G1 X98.040 Y96.908 E3.53414
G1 X97.981 Y97.581 E3.57684
G1 X97.981 Y107.652 E4.21276
G1 X97.525 Y107.810 E4.24319
G1 X96.905 Y108.149 E4.28781
G1 X96.349 Y108.585 E4.33243
G1 X96.010 Y108.955 E4.36413
G1 X95.735 Y108.827 E4.38332
G1 X94.994 Y108.628 E4.43173
G1 X94.213 Y108.572 E4.48117
G1 X93.520 Y108.633 E4.52509
G1 X92.797 Y108.827 E4.57235
G1 X92.445 Y108.991 E4.59691
G1 X92.026 Y108.572 E4.63429
G1 X91.413 Y108.143 E4.68156
G1 X90.735 Y107.827 E4.72882
G1 X90.012 Y107.633 E4.77609
G1 X89.366 Y107.577 E4.81703
G1 X87.956 Y107.577 E4.90605
G1 X87.430 Y107.614 E4.93933
G1 X86.836 Y107.742 E4.97774
G1 X86.265 Y107.954 E5.01616
G1 X85.731 Y108.243 E5.05455
G1 X84.017 Y109.515 E5.18928
G1 X82.676 Y110.240 E5.28557
G1 X81.245 Y110.767 E5.38185
G1 X79.754 Y111.086 E5.47814
G1 X78.233 Y111.190 E5.57443
G1 X76.712 Y111.076 E5.67072
G1 X75.223 Y110.748 E5.76701
G1 X73.795 Y110.212 E5.86330
G1 X72.459 Y109.478 E5.95959
G1 X71.239 Y108.562 E6.05588
G1 X70.163 Y107.482 E6.15217
G1 X69.251 Y106.260 E6.24846
G1 X68.521 Y104.921 E6.34474
G1 X67.989 Y103.492 E6.44103
G1 X67.666 Y102.002 E6.53732
G1 X67.551 Y100.398 E6.63889
G1 X67.545 Y96.870 E6.86167
G1 X67.893 Y96.777 E6.88437
G1 X68.413 Y96.534 E6.92063
G1 X68.883 Y96.205 E6.95689
G1 X69.290 Y95.799 E6.99315
G1 X69.619 Y95.328 E7.02941
G1 X69.862 Y94.808 E7.06567
G1 X70.010 Y94.253 E7.10192
G1 X70.060 Y93.681 E7.13818
G1 X70.010 Y93.109 E7.17444
G1 X69.862 Y92.554 E7.21070
G1 X69.619 Y92.034 E7.24696
G1 X69.290 Y91.564 E7.28322
G1 X68.883 Y91.158 E7.31948
G1 X68.413 Y90.828 E7.35573
G1 X67.893 Y90.586 E7.39199
G1 X67.551 Y90.494 E7.41430
G1 X67.551 Y85.913 E7.70360
G1 X68.266 Y85.975 E7.74890
G1 X69.012 Y85.910 E7.79616
G1 X69.735 Y85.716 E7.84343
G1 X70.087 Y85.552 E7.86798
G1 X70.506 Y85.971 E7.90537
G1 X71.119 Y86.400 E7.95264
G1 X71.797 Y86.716 E7.99990
G1 X72.520 Y86.910 E8.04717
G1 X73.166 Y86.966 E8.08811
G1 X89.356 Y86.966 E9.11041
G1 X89.938 Y86.921 E9.14725
G1 X90.592 Y86.763 E9.18979
G1 X91.215 Y86.506 E9.23232
G1 X91.789 Y86.154 E9.27485
G1 X92.301 Y85.716 E9.31738
G1 X92.443 Y85.551 E9.33113
G1 X92.797 Y85.716 E9.35584
G1 X93.520 Y85.910 E9.40311
G1 X94.266 Y85.975 E9.45037
G1 X95.012 Y85.910 E9.49764
G1 X95.735 Y85.716 E9.54491
G1 X96.087 Y85.552 E9.56946
G1 X96.506 Y85.971 E9.60685
G1 X97.119 Y86.400 E9.65411
G1 X97.797 Y86.716 E9.70138
G1 X98.520 Y86.910 E9.74865
G1 X99.166 Y86.966 E9.78959
G1 X125.297 Y86.966 E11.43961
G1 X125.037 Y87.935 E11.50295
G1 X124.972 Y88.681 E11.55022
G1 X125.037 Y89.427 E11.59749
G1 X125.297 Y90.396 E11.66083
G1 X105.166 Y90.396 E12.93198
G1 X103.999 Y90.498 E13.00594
G1 X102.771 Y90.827 E13.08623
G1 X101.619 Y91.364 E13.16651
G1 X100.577 Y92.093 E13.24680
G1 X100.337 Y92.334 E13.26831
G1 X99.644 Y93.905 F7800.000
G1 X99.664 Y93.681 E13.28252 F1800.000
G1 X99.628 Y93.265 E13.30891
G1 X99.519 Y92.861 E13.33531
G1 X99.343 Y92.482 E13.36170
G1 X99.103 Y92.140 E13.38810
G1 X98.807 Y91.844 E13.41449
G1 X98.465 Y91.604 E13.44089
G1 X98.086 Y91.428 E13.46728
G1 X97.672 Y91.317 E13.49438
G1 X97.238 Y91.286 E13.52186
G1 X96.850 Y91.319 E13.54645
G1 X96.446 Y91.428 E13.57285
G1 X96.067 Y91.604 E13.59924
G1 X95.725 Y91.844 E13.62564
G1 X95.429 Y92.140 E13.65203
G1 X95.189 Y92.482 E13.67843
G1 X95.013 Y92.861 E13.70482
G1 X94.904 Y93.265 E13.73122
G1 X94.868 Y93.681 E13.75761
G1 X94.905 Y94.109 E13.78471
G1 X95.025 Y94.527 E13.81219
G1 X95.189 Y94.880 E13.83679
G1 X95.429 Y95.222 E13.86318
G1 X95.725 Y95.518 E13.88958
G1 X96.067 Y95.758 E13.91597
G1 X96.446 Y95.934 E13.94237
G1 X96.850 Y96.043 E13.96876
G1 X97.266 Y96.079 E13.99516
G1 X97.682 Y96.043 E14.02155
G1 X98.086 Y95.934 E14.04794
G1 X98.465 Y95.758 E14.07434
G1 X99.349 Y95.139 E14.14245
G1 X98.965 Y96.570 E14.23600
G1 X98.873 Y97.620 E14.30257
G1 X98.873 Y107.805 E14.94566
G1 X98.860 Y107.961 E14.95556
G1 X98.796 Y108.148 E14.96804
G1 X98.667 Y108.310 E14.98116
G1 X98.597 Y108.365 E14.98676
G1 X98.510 Y108.413 E14.99302
G1 X97.889 Y108.629 E15.03459
G1 X97.398 Y108.897 E15.06990
G1 X96.958 Y109.242 E15.10521
G1 X96.580 Y109.654 E15.14052
G1 X96.269 Y110.132 E15.17651
G1 X95.965 Y109.919 E15.19997
G1 X95.428 Y109.669 E15.23737
G1 X94.845 Y109.513 E15.27547
G1 X94.220 Y109.468 E15.31504
G1 X93.676 Y109.516 E15.34954
G1 X93.104 Y109.669 E15.38695
G1 X92.567 Y109.919 E15.42435
G1 X92.212 Y110.168 E15.45171
G1 X91.869 Y109.678 E15.48947
G1 X91.450 Y109.259 E15.52688
G1 X90.965 Y108.919 E15.56428
G1 X90.428 Y108.669 E15.60168
G1 X89.856 Y108.516 E15.63908
G1 X89.327 Y108.469 E15.67263
G1 X87.988 Y108.469 E15.75718
G1 X87.557 Y108.500 E15.78446
G1 X87.086 Y108.602 E15.81486
G1 X86.635 Y108.769 E15.84526
G1 X86.212 Y108.998 E15.87565
G1 X84.498 Y110.269 E16.01041
G1 X83.044 Y111.055 E16.11474
G1 X81.494 Y111.627 E16.21908
G1 X79.878 Y111.972 E16.32342
G1 X78.230 Y112.085 E16.42775
G1 X76.582 Y111.962 E16.53209
G1 X74.968 Y111.606 E16.63642
G1 X73.422 Y111.025 E16.74076
G1 X71.973 Y110.230 E16.84510
G1 X70.652 Y109.238 E16.94943
G1 X69.486 Y108.067 E17.05377
G1 X68.497 Y106.743 E17.15811
G1 X67.707 Y105.292 E17.26244
G1 X67.130 Y103.744 E17.36678
G1 X66.780 Y102.129 E17.47111
G1 X66.659 Y100.430 E17.57867
G1 X66.651 Y96.089 E17.85279
G1 X67.182 Y96.043 E17.88645
G1 X67.586 Y95.934 E17.91284
G1 X67.965 Y95.758 E17.93924
G1 X68.307 Y95.518 E17.96563
G1 X68.603 Y95.222 E17.99203
G1 X68.843 Y94.880 E18.01842
G1 X69.019 Y94.501 E18.04482
G1 X69.128 Y94.097 E18.07121
G1 X69.164 Y93.681 E18.09761
G1 X69.128 Y93.265 E18.12400
G1 X69.019 Y92.861 E18.15040
G1 X68.843 Y92.482 E18.17679
G1 X68.603 Y92.140 E18.20319
G1 X68.307 Y91.844 E18.22958
G1 X67.965 Y91.604 E18.25598
G1 X67.586 Y91.428 E18.28237
G1 X67.172 Y91.317 E18.30947
G1 X66.659 Y91.280 E18.34195
G1 X66.659 Y84.667 E18.75954
G1 X67.104 Y84.874 E18.79056
G1 X67.676 Y85.027 E18.82796
G1 X68.266 Y85.079 E18.86536
G1 X68.856 Y85.027 E18.90276
G1 X69.428 Y84.874 E18.94016
G1 X69.965 Y84.624 E18.97757
G1 X70.320 Y84.375 E19.00492
G1 X70.663 Y84.865 E19.04269
G1 X71.082 Y85.284 E19.08009
G1 X71.567 Y85.624 E19.11750
G1 X72.104 Y85.874 E19.15490
G1 X72.676 Y86.027 E19.19230
G1 X73.205 Y86.074 E19.22585
G1 X89.321 Y86.074 E20.24347
G1 X89.797 Y86.036 E20.27367
G1 X90.316 Y85.912 E20.30732
G1 X90.808 Y85.708 E20.34098
G1 X91.263 Y85.429 E20.37464
G1 X91.668 Y85.083 E20.40830
G1 X92.014 Y84.678 E20.44196
G1 X92.203 Y84.369 E20.46482
G1 X92.567 Y84.624 E20.49285
G1 X93.104 Y84.874 E20.53025
G1 X93.676 Y85.027 E20.56765
G1 X94.266 Y85.079 E20.60506
G1 X94.856 Y85.027 E20.64246
G1 X95.428 Y84.874 E20.67986
G1 X95.965 Y84.624 E20.71726
G1 X96.320 Y84.375 E20.74462
G1 X96.663 Y84.865 E20.78239
G1 X97.082 Y85.284 E20.81979
G1 X97.567 Y85.624 E20.85719
G1 X98.104 Y85.874 E20.89459
G1 X98.676 Y86.027 E20.93200
G1 X99.205 Y86.074 E20.96554
G1 X126.959 Y86.074 E22.71809
G1 X126.323 Y86.982 E22.78810
G1 X126.073 Y87.519 E22.82551
G1 X125.920 Y88.091 E22.86291
G1 X125.868 Y88.681 E22.90031
G1 X125.920 Y89.271 E22.93771
G1 X126.073 Y89.843 E22.97511
G1 X126.323 Y90.380 E23.01252
G1 X126.959 Y91.288 E23.08253
G1 X105.205 Y91.288 E24.45620
G1 X104.155 Y91.380 E24.52277
G1 X103.078 Y91.669 E24.59320
G1 X102.067 Y92.140 E24.66362
G1 X101.153 Y92.780 E24.73404
G1 X100.365 Y93.568 E24.80446
G1 X100.031 Y94.046 E24.84126
G1 X99.715 Y93.931 E24.86248
G1 X100.409 Y91.657 F7800.000
G1 X102.376 Y88.915 F7800.000
G1 X105.222 Y88.681 F7800.000
G1 X123.513 Y88.922 F7800.000
G1 X124.037 Y89.401 F7800.000
G1 X126.308 Y89.203 F7800.000
G1 X126.802 Y89.116 F7800.000
G1 X126.764 Y88.681 E24.89001 F1800.000
G1 X126.802 Y88.247 E24.91755
G1 X126.915 Y87.825 E24.94509
G1 X127.099 Y87.430 E24.97263
G1 X127.349 Y87.073 E25.00017
G1 X127.658 Y86.764 E25.02771
G1 X128.015 Y86.514 E25.05524
G1 X128.410 Y86.330 E25.08278
G1 X128.832 Y86.217 E25.11032
G1 X129.227 Y86.183 E25.13541 F1800.000
G1 X129.697 Y86.216 E25.16512
G1 X130.122 Y86.330 E25.19291
G1 X130.517 Y86.514 E25.22045
G1 X130.874 Y86.764 E25.24799
G1 X131.183 Y87.073 E25.27552
G1 X131.433 Y87.430 E25.30306
G1 X131.601 Y87.790 E25.32815
G1 X131.730 Y88.243 E25.35786
G1 X131.768 Y88.681 E25.38565
G1 X131.730 Y89.116 E25.41319
G1 X131.617 Y89.537 E25.44073
G1 X131.433 Y89.932 E25.46826
G1 X131.183 Y90.289 E25.49580
G1 X130.874 Y90.598 E25.52334
G1 X130.517 Y90.848 E25.55088
G1 X130.122 Y91.032 E25.57842
G1 X129.701 Y91.145 E25.60596
G1 X129.266 Y91.183 E25.63349
G1 X128.832 Y91.145 E25.66103
G1 X128.410 Y91.032 E25.68857
G1 X128.015 Y90.848 E25.71611
G1 X127.658 Y90.598 E25.74365
G1 X127.349 Y90.289 E25.77119
G1 X127.099 Y89.932 E25.79873
G1 X126.915 Y89.537 E25.82626
G1 X126.822 Y89.188 E25.84907
G1 X126.397 Y88.955 F7800.000
G1 X65.766 Y92.181 F7800.000
G1 X65.766 Y83.109 E26.42192 F1800.000
G1 X66.141 Y82.991 E26.44672
G1 X66.349 Y83.289 E26.46972
G1 X66.658 Y83.598 E26.49726
G1 X67.015 Y83.848 E26.52479
G1 X67.410 Y84.032 E26.55233
G1 X67.832 Y84.145 E26.57987
G1 X68.266 Y84.183 E26.60741
G1 X68.701 Y84.145 E26.63495
G1 X69.122 Y84.032 E26.66249
G1 X69.517 Y83.848 E26.69003
G1 X69.874 Y83.598 E26.71756
G1 X70.183 Y83.289 E26.74510
G1 X70.664 Y82.601 E26.79814
G1 X70.915 Y83.537 E26.85929
G1 X71.099 Y83.932 E26.88683
G1 X71.349 Y84.289 E26.91437
G1 X71.658 Y84.598 E26.94191
G1 X72.015 Y84.848 E26.96945
G1 X72.410 Y85.032 E26.99699
G1 X72.832 Y85.145 E27.02452
G1 X73.244 Y85.181 E27.05068
G1 X89.286 Y85.181 E28.06363
G1 X89.657 Y85.152 E28.08717
G1 X90.039 Y85.060 E28.11196
G1 X90.402 Y84.910 E28.13674
G1 X90.736 Y84.705 E28.16153
G1 X91.035 Y84.450 E28.18632
G1 X91.290 Y84.151 E28.21110
G1 X91.495 Y83.817 E28.23589
G1 X91.645 Y83.454 E28.26068
G1 X91.854 Y82.582 E28.31729
G1 X92.349 Y83.289 E28.37179
G1 X92.658 Y83.598 E28.39933
G1 X93.015 Y83.848 E28.42687
G1 X93.410 Y84.032 E28.45440
